!!!!SEGMENT: pl-kk--kk-i-2--011-003_pacelli-asprilio--missa-ave-maris-stella-credo.krn
!!!cenid: 16xx:1618
!!!COM: Pacelli, Asprilio
!!!COM-rismid: pe30009570
!!!CDT: 1570-1623/05/04
!!!CNT: Italian
!!!OPR: Missa Ave Maris Stella
!!!OTL: Credo
!!!OMV: 003
!!!PDT:
!!!AGN: Sacred; Mass
!!!SMS-siglum: PL-Kk
!!!SMS-shelfmark: Kk.I.2
!!!SMS-shelfwork: 011-003 M
!!!NIFC-rismid: 300258027
!!!URL-scan: http://repozytorium.nifc.pl/skany/pl-kk-nut--i-2
!!!ONB-nifc: Części mszy: Kyrie, Gloria, Credo, Sanctus, Agnus Dei; skany: C: 0028-0031; A: 0128-0131; T: 0232-0235; B: 0330-0332;
**kern	**text	**kern	**text	**kern	**text	**kern	**text
*part4	*part4	*part3	*part3	*part2	*part2	*part1	*part1
*staff4	*staff4	*staff3	*staff3	*staff2	*staff2	*staff1	*staff1
*I"BASVS	*	*I"TENOR	*	*I"ALTVS	*	*I"DISCANTVS	*
*I'B	*	*I'T	*	*I'A	*	*I'S	*
*Ibass	*	*Itenor	*	*Ialto	*	*Isoprn	*
*ICvox	*	*ICvox	*	*ICvox	*	*ICvox	*
*clefF4	*	*clefC4	*	*clefC4	*	*clefC3	*
*k[]	*	*k[]	*	*k[]	*	*k[]	*
*G:	*	*G:	*	*G:	*	*G:	*
*M2/1	*	*M2/1	*	*M2/1	*	*M2/1	*
*met(C|)	*	*met(C|)	*	*met(C|)	*	*met(C|)	*
=1-	=1-	=1-	=1-	=1-	=1-	=1-	=1-
*all\right	*	*all\right	*	*all\right	*	*all\right	*
*	*	*2\right	*	*	*	*	*
0AA/	PA-	2c\	PA-	1.A\	PA-	1e\	PA-
.	.	4c\	-trem	.	.	.	.
.	.	4d\	om-	.	.	.	.
.	.	2e\	-ni-	.	.	2c/	-tre(m)
.	.	2c\	-po-	2E/	-trem	1A/	om-
=2-	=2-	=2-	=2-	=2-	=2-	=2-	=2-
1.D\	-trem	2d\	-ten-	4F/	om-	.	.
.	.	.	.	4E/	.	.	.
.	.	2A/	-tem	4F/	.	4d\	-ni-
.	.	.	.	4G/	.	4e\	.
.	.	2.d\	om-	2A/	.	4f\	.
.	.	.	.	.	.	4g\	.
2D/	om-	.	.	2F/	-ni-	4a\	.
.	.	4c\	.	.	.	4f\	.
=3-	=3-	=3-	=3-	=3-	=3-	=3-	=3-
*	*	*	*	*	*	*2\right	*
1E\	-ni-	2B\	.	2E/	-po-	2g\	.
.	.	4B\	-ni-	2G/	-ten-	2e\	-po-
.	.	4B\	-po-	.	.	.	.
1C/	-po-	1c\	-ten-	2G/	-te(m)	1e\	-ten-
.	.	.	.	2A/	om-	.	.
=4-	=4-	=4-	=4-	=4-	=4-	=4-	=4-
!	!	!	!	!LO:TX:b:t=P:problem:# below	!	!	!
2.D/	-ten-	1.A\	.	4F#X/	-ni-	2d\	-tem
.	.	.	.	4E/	.	.	.
!	!	!	!	!LO:TX:b:t=P:problem:# below	!	!	!
.	.	.	.	4F#X/	.	1d\	fa-
4E\	.	.	.	4G/	.	.	.
*2\right	*	*	*	*	*	*	*
2F#X\	.	.	.	2A/	-po-	.	.
1G\	.	2G/	-tem	4B\	-ten-	2B/	-cto-
.	.	.	.	4c\	.	.	.
=5-	=5-	=5-	=5-	=5-	=5-	=5-	=5-
.	.	1A\	fa-	0.d\	-tem.	2A/	-rem
4Fny\	.	.	.	.	.	4d\	cae-
4E\	.	.	.	.	.	4e\	.
4D/	.	2.d\	-cto-	.	.	4f\	.
4E\	.	.	.	.	.	4g\	.
4F\	.	.	.	.	.	4a\	.
4D/	.	4c\	.	.	.	4f\	.
=6-	=6-	=6-	=6-	=6-	=6-	=6-	=6-
2G\	tem	4B\	.	.	.	2.g\	.
.	.	4A/	.	.	.	.	.
2GG/	om-	2B\	.	.	.	.	.
.	.	.	.	.	.	4f\	.
2.C/	-ni-	2c\	-rem	0r	.	4e\	.
.	.	.	.	.	.	4d\	.
.	.	2.G/	cae-	.	.	2.e\	.
4D/	-po-	.	.	.	.	.	.
=7-	=7-	=7-	=7-	=7-	=7-	=7-	=7-
1E\	-ten-	.	.	.	.	.	.
!	!	!LO:SIC:v:t=custos B	!	!	!	!LO:SIC:v:t=custos g	!
.	.	4A/	.	.	.	4f\	.
!	!	!LO:LB:g=original	!	!	!	!LO:PB:g=original	!
.	.	4B\	.	.	.	2.g\	.
.	.	4G/	.	.	.	.	.
1D\	-tem	2d\	-li	1A\	fa-	.	.
.	.	.	.	.	.	4g\	-li
.	.	1d\	fa-	.	.	2f\	et
=8-	=8-	=8-	=8-	=8-	=8-	=8-	=8-
*	*	*	*	*2\right	*	*	*
1GG/	fa-	.	.	2.B\	-cto-	2g\	ter-
.	.	2B\	-cto-	.	.	2d\	-rae
.	.	.	.	4c\	-rem	.	.
1.D\	-cto-	2A/	-rem	2.d\	cae-	1r	.
.	.	4D/	cae-	.	.	.	.
!	!	!	!	!LO:SIC:v:t=custos B	!	!	!
.	.	4E/	.	4c\	.	.	.
!	!	!	!	!LO:LB:g=original	!	!	!
=9-	=9-	=9-	=9-	=9-	=9-	=9-	=9-
.	.	4F/	.	2B\	.	1d\	fa-
.	.	4G/	.	.	.	.	.
!LO:SIC:v:t=custos E	!	!	!	!	!	!	!
2D/	-re(m)	4A/	.	2A/	.	.	.
.	.	4F/	.	.	.	.	.
!LO:LB:g=original	!	!	!	!	!	!	!
1E\	cae-	4G/	.	1G/	.	2B/	-cto-
.	.	4A/	.	.	.	.	.
.	.	4B\	.	.	.	1G/	-rem
.	.	8A/L	.	.	.	.	.
.	.	8B/J	.	.	.	.	.
=10-	=10-	=10-	=10-	=10-	=10-	=10-	=10-
0C/	-li	4c\	.	2E/	li	.	.
.	.	4d\	.	.	.	.	.
.	.	2.e\	.	1G/	cae-	4c/	cae-
.	.	.	.	.	.	4d\	.
.	.	.	.	.	.	4e\	.
.	.	4d\	.	.	.	4f\	.
.	.	4c\	.	2E/	-li	1g\	.
.	.	4B\	.	.	.	.	.
=11-	=11-	=11-	=11-	=11-	=11-	=11-	=11-
1D\	et	2.A/	.	1D/	et	.	.
.	.	.	.	.	.	2f\	-li
.	.	4B\	.	.	.	.	.
*	*	*	*	*	*	*lig	*
2.E\	ter-	2c\	-li	2.G/	ter-	1e\	et
.	.	1B\	.	.	.	.	.
4F\	.	.	.	4A/	.	.	.
=12-	=12-	=12-	=12-	=12-	=12-	=12-	=12-
2G\	.	.	.	4B\	.	1d\	.
.	.	.	.	4c\	.	.	.
2F\	.	2A/	et	1d\	.	.	.
*	*	*	*	*	*	*Xlig	*
1E\	.	2G/	ter-	.	.	2.g\	ter-
.	.	2E/	.	2c#X\	.	.	.
.	.	.	.	.	.	8f\L	.
.	.	.	.	.	.	8g\J	.
=13-	=13-	=13-	=13-	=13-	=13-	=13-	=13-
2D/	-rae	1A\	-rae	2d\	.	2a\	.
1D\	Vi-	.	.	2A/	-rae	2d\	-rae
.	.	2r	.	0A\	Vi-	2e\	Vi-
2C/	-ſi-	1A\	Vi-	.	.	2e\	-ſi-
=14-	=14-	=14-	=14-	=14-	=14-	=14-	=14-
2.D/	-bi-	.	.	.	.	2f\	-bi-
.	.	2F/	-ſi-	.	.	2a\	-li-
4C/	.	.	.	.	.	.	.
2BB/	.	2.G/	-bi-	1D/	-ſi-	2g\	-um
2BB/	-lu-	.	.	.	.	2.g\	o-
.	.	4F/	.	.	.	.	.
=15-	=15-	=15-	=15-	=15-	=15-	=15-	=15-
2.C/	-um	4E/	.	2.E/	-bi-	.	.
!	!	!LO:SIC:v:t=custos c	!	!	!	!	!
.	.	4C/	.	.	.	4f\	.
!	!	!LO:LB:g=original	!	!	!	!	!
.	.	2.c\	.	.	.	1e\	.
4D/	.	.	.	4Fny/	.	.	.
4E\	.	.	.	1G/	.	.	.
4F\	.	4c\	-li-	.	.	.	.
2.G\	om-	2.B\	-um	.	.	4d\	.
.	.	.	.	.	.	4c/	.
=16-	=16-	=16-	=16-	=16-	=16-	=16-	=16-
.	.	.	.	2G/	-li-	2.d\	.
8F\	.	8A/L	.	.	.	.	.
8E\	-ni-	8G/J	.	.	.	.	.
2D/	-um	2A/	.	2F/	-um	.	.
.	.	.	.	.	.	4c/	-mni-
!	!	!	!	!	!	!LO:SIC:v:t=custos e	!
2A\	et	2e\	om-	1.E/	om-	1B/	-um
2G#X\	in-	2e\	-ni-	.	.	.	.
!	!	!	!	!	!	!LO:LB:g=original	!
=17-	=17-	=17-	=17-	=17-	=17-	=17-	=17-
2.A\	-Vi-	2A/	-um	.	.	2e\	et
.	.	2e\	et	2E/	-ni-	2A/	in-
4Gny\	.	.	.	.	.	.	.
4F\	.	1A\	in-	2D/	-um.	1a\	-Vi-
4D/	.	.	.	.	.	.	.
2F\	.	.	.	2.d\	et	.	.
=18-	=18-	=18-	=18-	=18-	=18-	=18-	=18-
!LO:SIC:v:t=custos GG	!	!	!	!	!	!	!
2G\	-ſi-	2.B\	-Vi-	.	.	1.g\	-ſi-
.	.	.	.	4c\	in-	.	.
!LO:LB:g=original	!	!	!	!	!	!	!
4GG/	-bi-	.	.	1B\	-Vi-	.	.
4AA/	.	4c\	.	.	.	.	.
4BB/	.	1.d\	.	.	.	.	.
4C/	.	.	.	.	.	.	.
!	!	!	!	!LO:SIC:v:t=custos A	!	!	!
!	!	!	!	!LO:SIC:v:l:t=custos slowny bi	!	!	!
2.D/	.	.	.	1A\	-ſi-	4f\	.
.	.	.	.	.	.	4e\	.
=19-	=19-	=19-	=19-	=19-	=19-	=19-	=19-
.	.	.	.	.	.	4f\	-bi-
8C/L	.	.	.	.	.	8e\L	.
8BB/J	.	.	.	.	.	8d\J	.
!	!	!	!	!LO:PB:g=original	!	!	!
2AA/	.	2c\	-ſi-	1A\	-bi-	1e\	.
2.E\	.	2.B\	-bi-	.	.	.	.
.	.	.	.	2G/	-li-	1e\	-li-
4D/	.	4B\	-li-	.	.	.	.
=20-	=20-	=20-	=20-	=20-	=20-	=20-	=20-
4C/	.	2A/	-um	2A/	-um	.	.
8BB/L	.	.	.	.	.	.	.
8C/J	.	.	.	.	.	.	.
1D\	.	2.D/	Et	1F/	et	4d\	.
.	.	.	.	.	.	4c/	.
.	.	.	.	.	.	2d\	-um
.	.	4E/	.	.	.	.	.
2D/	-li-	4F/	.	2F/	in	4A/	et
.	.	4G/	.	.	.	4B/	.
=21-	=21-	=21-	=21-	=21-	=21-	=21-	=21-
2AA/	-um.	4A/	.	0E/	V-	4c\	.
.	.	4B\	.	.	.	4d/	.
2.AA/	Et	2.c\	.	.	.	2e\	.
.	.	.	.	.	.	2c/	in
4BB/	.	8B\L	.	.	.	.	.
.	.	8A\J	.	.	.	.	.
4C/	.	1G/	.	.	.	1c\	V-
4D/	.	.	.	.	.	.	.
=22-	=22-	=22-	=22-	=22-	=22-	=22-	=22-
4E\	.	.	.	1G/	-num	.	.
4F\	.	.	.	.	.	.	.
1G\	.	2G/	in	.	.	2B/	-num
.	.	1D/	V-	0A\	Do-	2d\	Do-
4F#X\	.	.	.	.	.	2d\	-mi-
4E\	.	.	.	.	.	.	.
=23-	=23-	=23-	=23-	=23-	=23-	=23-	=23-
2F#X\	.	2D/	-num	.	.	1d\	-num.
2F#\	in	4d\	Do-	.	.	.	.
!	!	!LO:SIC:v:t=custos B	!	!	!	!	!
.	.	4c\	.	.	.	.	.
!	!	!LO:LB:g=original	!	!	!	!	!
2G\	V-	4B\	.	1D/	-mi-	0r	.
.	.	4G/	.	.	.	.	.
2B\	-num	1d\	.	.	.	.	.
=24-	=24-	=24-	=24-	=24-	=24-	=24-	=24-
2A\	Do-	.	.	1E/	-num	.	.
2A\	-mi-	2c#X\	-mi-	.	.	.	.
!	!	!	!	!	!	!LO:TX:b:t=4	!
2.D/	-num	1d\	-nu(m)	2F/	Je-	00f\	Je-
.	.	.	.	2A/	ſum	.	.
4C/	.	.	.	.	.	.	.
=25-	=25-	=25-	=25-	=25-	=25-	=25-	=25-
!LO:SIC:v:t=custos BB	!	!	!	!	!	!	!
2BB-X/	.	2.D/	Je-	2.B-X\	chri-	.	.
!LO:LB:g=original	!	!	!	!	!	!	!
2.BB-X/	Je-	.	.	.	.	.	.
.	.	4E/	.	4c\	.	.	.
.	.	2.F/	.	1d\	.	.	.
4C/	.	.	.	.	.	.	.
4D/	.	.	.	.	.	.	.
4BB-/	.	4G/	.	.	.	.	.
=26-	=26-	=26-	=26-	=26-	=26-	=26-	=26-
2Fny\	.	1A\	.	2c\	-ſtum	.	.
2F\	-ſum	.	.	2.c\	Je-	.	.
4C/	Je-	0G/	-ſum	.	.	1e\	-ſum
4D/	.	.	.	8Bny\L	.	.	.
.	.	.	.	8A\J	.	.	.
4E\	.	.	.	4G/	.	.	.
4F\	.	.	.	4A/	.	.	.
=27-	=27-	=27-	=27-	=27-	=27-	=27-	=27-
2G\	.	.	.	4B\	.	0d\	Chri-
.	.	.	.	4A/	.	.	.
2G\	-ſum	.	.	4B\	.	.	.
.	.	.	.	4c\	.	.	.
4D/	Je-	2r	.	2d\	.	.	.
4E\	.	.	.	.	.	.	.
4F\	.	4A/	Je-	2d\	-ſum	.	.
4D/	.	4B\	.	.	.	.	.
=28-	=28-	=28-	=28-	=28-	=28-	=28-	=28-
2A\	.	4cny\	.	0e\	Chri-	2.c/	-ſtum.
.	.	4d\	.	.	.	.	.
2A\	-ſum	2.e\	.	.	.	.	.
.	.	.	.	.	.	4d\	.
2.E\	Chri-	.	.	.	.	2.e\	.
.	.	4d\	-ſum	.	.	.	.
.	.	1c\	Chri-	.	.	.	.
!	!	!	!	!	!	!LO:SIC:v:t=custos g	!
8D/L	.	.	.	.	.	4f\	.
8C/J	.	.	.	.	.	.	.
!	!	!	!	!	!	!LO:LB:g=original	!
=29-	=29-	=29-	=29-	=29-	=29-	=29-	=29-
1G\	.	.	.	0d\	-ſtum	1g\	.
.	.	2B\	.	.	.	.	.
1D\	-ſtum	1A\	-ſtum.	.	.	1r	.
=30-	=30-	=30-	=30-	=30-	=30-	=30-	=30-
2r	.	2r	.	2r	.	2.g\	fi-
2.G\	fi-	2.d\	fi-	2.d\	fi-	.	.
.	.	.	.	.	.	4g\	-li-
.	.	.	.	.	.	1a\	-um
4G\	-li-	4d\	-li-	4d\	-li-	.	.
!	!	!	!	!LO:SIC:v:t=custos B	!	!	!
2F#X\	-um	2d\	-um	2A/	-um	.	.
!	!	!	!	!LO:LB:g=original	!	!	!
=31-	=31-	=31-	=31-	=31-	=31-	=31-	=31-
2G\	De-	2d\	De-	2.B\	De-	2.g\	De-
2E\	-i	2e\	-i	.	.	.	.
.	.	.	.	4G/	-i	4g\	-i
2Fny\	U-	4d\	V-	2A/	V-	2f\	U-
.	.	4c\	-ni-	.	.	.	.
2A\	-ni-	1c\	-ge-	2F/	-ni-	2c/	-ni-
=32-	=32-	=32-	=32-	=32-	=32-	=32-	=32-
2G\	-ge-	.	.	2.G/	-ge-	2.d\	-ge-
!LO:SIC:v:t=custos C	!	!	!	!	!	!	!
2G\	-ni-	2B\	-ni-	.	.	.	.
.	.	.	.	4G/	-ni-	4d\	-ni-
!LO:LB:g=original	!	!LO:SIC:v:t=custos c	!	!	!	!	!
2C/	-tum	2c\	-tum	1G/	-tum	2e\	-tu(m)
!	!	!LO:LB:g=original	!	!	!	!	!
2C/	et	1c\	Et	.	.	4c/	Et
.	.	.	.	.	.	4c/	ex
=33-	=33-	=33-	=33-	=33-	=33-	=33-	=33-
2C/	ex	.	.	2r	.	4c/	Pa-
.	.	.	.	.	.	4d\	.
4C/	Pa-	2c\	ex	2G/	Et	4e\	.
4D/	.	.	.	.	.	4f\	.
4E\	.	1B\	Pa-	2G/	ex	4g\	.
4F\	.	.	.	.	.	8f\L	.
.	.	.	.	.	.	8e\J	.
1G\	.	.	.	4G/	Pa-	2.d\	.
.	.	.	.	4A/	.	.	.
=34-	=34-	=34-	=34-	=34-	=34-	=34-	=34-
.	.	1d\	-tre	4B\	.	.	.
.	.	.	.	4c\	.	4e\	.
2F\	-tre	.	.	1d\	.	2f\	.
0E\	na-	1e\	na-	.	.	2g\	-tre
.	.	.	.	2c\	-tre	1a\	na-
=35-	=35-	=35-	=35-	=35-	=35-	=35-	=35-
.	.	1e\	-tum	1B\	na-	.	.
.	.	.	.	.	.	2g#X\	.
2F\	-tu(m)	1A\	an-	2A/	-tu(m)	1a\	-tum
1A\	an-	.	.	1E/	an-	.	.
=36-	=36-	=36-	=36-	=36-	=36-	=36-	=36-
.	.	1B\	-te	.	.	2r	.
2G\	-te	.	.	2E/	-te	1e\	an-
2A\	om-	1c\	om-	2r	.	.	.
2AA/	-ni-	.	.	1A\	an-	2e\	-te
=37-	=37-	=37-	=37-	=37-	=37-	=37-	=37-
1E\	-a	2c\	-ni-	.	.	2.e\	om-
.	.	2B\	-a	2G#X/	-te	.	.
!	!	!	!	!	!	!LO:SIC:v:t=custos c	!
.	.	.	.	.	.	4d\	-ni-
!	!	!	!	!	!	!LO:LB:g=original	!
2.AA/	ſae-	0A\	ſae-	2A/	om-	1.c\	-a
.	.	.	.	2E/	-ni-	.	.
4GG/	.	.	.	.	.	.	.
=38-	=38-	=38-	=38-	=38-	=38-	=38-	=38-
1.FF/	.	.	.	2F/	-a	.	.
.	.	.	.	1c\	ſae-	2.f\	ſae-
.	.	1A\	-cu-	.	.	.	.
.	.	.	.	.	.	8e\L	.
.	.	.	.	.	.	8d\J	.
2FF/	-cu-	.	.	2c\	-cu-	4c/	.
.	.	.	.	.	.	4A/	-cu-
=39-	=39-	=39-	=39-	=39-	=39-	=39-	=39-
1C/	-la.	1G/	-la	1c\	-la	1e\	-la
0F\	De-	2r	.	2.c\	De-	2r	.
.	.	4F/	De-	.	.	2c/	De-
.	.	4G/	.	4B\	-u(m)	.	.
=40-	=40-	=40-	=40-	=40-	=40-	=40-	=40-
.	.	4A/	.	4A/	de	2c/	-um
.	.	4B/	.	4Gny/	.	.	.
!	!	!	!	!LO:SIC:v:t=custos G	!	!	!
.	.	2.c\	.	2F/	De-	4c/	de
.	.	.	.	.	.	4d\	.
!	!	!	!	!LO:LB:g=original	!	!	!
1E\	-um	.	.	2.G/	-o	4e\	.
.	.	4c\	-um	.	.	4f\	.
.	.	4G/	de	.	.	1gny\	.
.	.	4A/	.	8F/L	.	.	.
.	.	.	.	8E/J	.	.	.
=41-	=41-	=41-	=41-	=41-	=41-	=41-	=41-
1G\	de	4B\	.	1D/	.	.	.
.	.	4c\	.	.	.	.	.
.	.	2.d\	.	.	.	2f\	.
1A\	De-	.	.	1.A\	lu-	1e\	De-
.	.	8c#X\L	.	.	.	.	.
.	.	8B\J	.	.	.	.	.
.	.	2c#X\	.	.	.	.	.
=42-	=42-	=42-	=42-	=42-	=42-	=42-	=42-
!	!	!LO:TX:b:t=o	!	!	!	!	!
1D\	-o	2.d\	De-	.	.	2f\	-o
.	.	.	.	2F/	-men	1a\	lu-
!	!	!LO:SIC:v:t=custos B	!	!	!	!	!
.	.	4cny\	.	.	.	.	.
!	!	!LO:PB:g=original	!	!	!	!	!
1E\	lu-	4B\	.	1.E/	lu-	.	.
.	.	4A/	.	.	.	.	.
.	.	2B\	.	.	.	2g\	-men
=43-	=43-	=43-	=43-	=43-	=43-	=43-	=43-
!LO:SIC:v:t=custos E	!	!	!	!	!	!	!
1F\	-men.	2A/	-o	.	.	2a\	de
.	.	2.A/	lu-	2D/	-men	4A/	lu-
.	.	.	.	.	.	4B/	.
!LO:PB:g=original	!	!	!	!	!	!	!
1E\	de	.	.	1E/	de	4c/	.
.	.	4A/	-men	.	.	8B/L	.
.	.	.	.	.	.	8A/J	.
.	.	2G/	de	.	.	4B/	.
.	.	.	.	.	.	4c/	.
=44-	=44-	=44-	=44-	=44-	=44-	=44-	=44-
2D/	lu-	2A/	lu-	2F/	lu-	2d\	.
2D/	-mi-	2B\	-mi-	2D/	-mi-	2f\	mi-
2C/	-ne	1c\	-ne	2G/	-ne.	2e\	-ne
1E\	De-	.	.	2E/	De-	4e\	De-
.	.	.	.	.	.	4e\	-um
=45-	=45-	=45-	=45-	=45-	=45-	=45-	=45-
.	.	1.B\	De-	2E/	-um	2g\	Ve-
2E\	-um	.	.	2.G/	Ve-	2e\	-ru(m)
!	!	!	!	!	!	!LO:SIC:v:t=custos e	!
2G\	Ve-	.	.	.	.	2d\	de
.	.	.	.	4A/	.	.	.
!	!	!	!	!	!	!LO:LB:g=original	!
2E\	-ru(m)	2B\	-um	4B\	.	2e\	De-
.	.	.	.	4G/	.	.	.
=46-	=46-	=46-	=46-	=46-	=46-	=46-	=46-
2F\	de	1d\	Ve-	2A/	-ru(m)	2A/	-o
2.G\	De-	.	.	1G/	de	2B/	de
.	.	2B\	-ru(m)	.	.	2d\	De-
4F\	.	.	.	.	.	.	.
4E\	.	2B\	de	2.G/	De-	2e\	-o
4D/	.	.	.	.	.	.	.
=47-	=47-	=47-	=47-	=47-	=47-	=47-	=47-
2C/	.	2c\	De-	.	.	0e\	ve-
.	.	.	.	4E/	-o	.	.
2AA/	-o	2c\	-o	1A\	Ve-	.	.
1E\	Ve-	1B\	Ve-	.	.	.	.
!	!	!	!	!LO:TX:b:t=P:problem:# below	!	!	!
.	.	.	.	2G#X/	.	.	.
=48-	=48-	=48-	=48-	=48-	=48-	=48-	=48-
1AA/	-ro.	1A\	-ro	1A\	-ro	2e\	-ro
.	.	.	.	.	.	2.A/	ge-
1r	.	2.D/	ge-	0r	.	.	.
.	.	.	.	.	.	4A/	-ni-
.	.	.	.	.	.	1d\	-tu(m)
.	.	4D/	-ni-	.	.	.	.
=49-	=49-	=49-	=49-	=49-	=49-	=49-	=49-
2.D/	Ge-	2A/	-tu(m)	.	.	.	.
.	.	2A/	non	.	.	2d\	non
4D/	-ni-	.	.	.	.	.	.
2A\	-tu(m)	4c\	fa-	1r	.	2e\	fac-
.	.	4d\	.	.	.	.	.
2A\	non	2.e\	.	.	.	2c/	-tu(m)
=50-	=50-	=50-	=50-	=50-	=50-	=50-	=50-
2B\	fac-	.	.	2.D/	Ge-	2G/	con-
.	.	4d\	.	.	.	.	.
2G\	-tu(m)	2.d\	.	.	.	2g\	-ſub-
.	.	.	.	4D/	-ni-	.	.
2.A\	con-	.	.	2A/	-tu(m)	2e\	-ſtan-
.	.	8c\L	.	.	.	.	.
.	.	8B\J	.	.	.	.	.
!	!	!	!	!LO:SIC:v:t=custos B	!	!	!
.	.	2c\	.	2A/	non	2f\	-ti-
4A\	ſub-	.	.	.	.	.	.
!	!	!	!	!LO:LB:g=original	!	!	!
=51-	=51-	=51-	=51-	=51-	=51-	=51-	=51-
!	!	!LO:SIC:v:t=custos e	!	!	!	!	!
2G\	-ſtan-	2d\	.	2B\	fa-	1g\	-a-
!	!	!LO:LB:g=original	!	!	!	!	!
2E\	-ti-	2e\	.	2Gny/	-ctu(m)	.	.
4D/	-a-	1A\	-ctu(m)	2.A/	con-	1f\	-le(m)
4E\	.	.	.	.	.	.	.
4F\	.	.	.	.	.	.	.
4G\	.	.	.	4B\	-ſub-	.	.
=52-	=52-	=52-	=52-	=52-	=52-	=52-	=52-
1.F\	.	2.A/	Con-	2c\	-ſtan-	2.f\	Pa-
.	.	.	.	2d\	-ti-	.	.
.	.	4B\	-ſub-	.	.	4g\	.
.	.	2c\	-ſtan-	2c\	-a-	2a\	.
2D/	-le(m)	2d\	-ti-	1B\	-lem	4g\	.
.	.	.	.	.	.	4f\	.
=53-	=53-	=53-	=53-	=53-	=53-	=53-	=53-
!LO:SIC:v:t=custos F	!	!	!	!	!	!	!
2E\	Pa-	2c\	-a-	.	.	2g\	.
!LO:LB:g=original	!	!	!	!	!	!	!
2F\	.	2c\	-lem	1A\	.	1f\	.
2D/	.	1B\	Pa-	.	.	.	.
2E\	.	.	.	2G#X/	Pa-	4e\	.
.	.	.	.	.	.	4d\	.
=54-	=54-	=54-	=54-	=54-	=54-	=54-	=54-
2AA/	-tri	2A/	-tri	2A/	-tri	2c#X/	tri
!	!	!	!	!LO:TX:b:t=P:problem:# below	!	!LO:SIC:v:t=custos e	!
1AA/	p(er)	2E/	p(er)	1c#X\	per	1e\	per
.	.	2E/	que(m)	.	.	.	.
!	!	!	!	!	!	!LO:PB:g=original	!
2AA/	que(m)	1A\	om-	2c#\	que(m)	2e\	que(m)
=55-	=55-	=55-	=55-	=55-	=55-	=55-	=55-
1.D\	om-	.	.	1.d\	om-	2.f#X\	o-
.	.	2A/	-ni-	.	.	.	.
.	.	.	.	.	.	4g\	.
.	.	1A\	-a	.	.	2a\	.
2D/	-ni-	.	.	2A/	-ni-	2d\	-mni-
=56-	=56-	=56-	=56-	=56-	=56-	=56-	=56-
1GG/	-a	2G/	p(er)	1B\	-a	2d\	-a
.	.	2G/	que(m)	.	.	2.g\	fa-
2.C/	fa-	2.G/	om-	2cny\	fa-	.	.
.	.	.	.	.	.	4fny\	.
.	.	.	.	2Gny/	.	2e\	.
4BBny/	.	4G/	-ni-	.	.	.	.
=57-	=57-	=57-	=57-	=57-	=57-	=57-	=57-
2AA/	.	1F/	-a	2A/	.	2cny/	-cta
4GG/	.	.	.	2.c\	.	2.c/	fa-
4FF/	.	.	.	.	.	.	.
1.C/	.	1.G/	fa-	.	.	.	.
.	.	.	.	8B\L	.	4d\	.
.	.	.	.	8A\J	.	.	.
.	.	.	.	1G/	.	4e\	.
.	.	.	.	.	.	4f\	.
=58-	=58-	=58-	=58-	=58-	=58-	=58-	=58-
.	.	.	.	.	.	2g\	.
2C/	-cta	2G/	-cta	2G/	cta	2e\	.
2F,<\	ſunt	2F/	ſunt	2A/	ſunt	2.c/	-cta
2F\	(qui)	2c\	q(ui)	2A/	(Qui)	.	.
.	.	.	.	.	.	4B/	ſunt
=59-	=59-	=59-	=59-	=59-	=59-	=59-	=59-
1F\	p(ro)-	2c\	p(ro)-	1A\	(pro)-	1A/	.
.	.	2d\	-pter	.	.	.	.
2G\	-pter	2B\	nos	1D/	-pter	2r	.
2B\	nos	2.d\	ho-	.	.	2G/	Qui
=60-	=60-	=60-	=60-	=60-	=60-	=60-	=60-
*lig	*	*	*	*	*	*	*
*col	*	*	*	*	*	*	*
!	!	!	!	!LO:SIC:v:t=custos G	!	!	!
1A\	ho-	.	.	1E/	nos	1c\	(pro)-
.	.	4c\	.	.	.	.	.
.	.	1c\	.	.	.	.	.
!	!	!	!	!LO:LB:g=original	!	!	!
2.G\	.	.	.	1.G/	ho-	1d\	-pter
.	.	4B\	.	.	.	.	.
*Xlig	*	*	*	*	*	*	*
*Xcol	*	*	*	*	*	*	*
!	!	!LO:SIC:v:t=custos B	!	!	!	!	!
4F\	.	4A/	.	.	.	.	.
!	!	!LO:LB:g=original	!	!	!	!	!
=61-	=61-	=61-	=61-	=61-	=61-	=61-	=61-
2E\	.	4B\	.	.	.	2e\	nos
.	.	4c\	.	.	.	.	.
2D/	.	1d\	.	2F/	-mi-	1a\	ho-
*	*	*	*	*lig	*	*	*
2.A\	.	.	.	1E/	-nes	.	.
.	.	2c#X\	mi-	.	.	2e\	-mi-
4AA/	-mi-	.	.	.	.	.	.
=62-	=62-	=62-	=62-	=62-	=62-	=62-	=62-
1D\	-nes	2d\	-nes	1D/	.	2.f\	-nes
.	.	2A/	et	.	.	.	.
.	.	.	.	.	.	4e\	.
*	*	*	*	*Xlig	*	*	*
2r	.	2A/	p(ro)-	2A/	et	1d\	.
2A\	et	2A/	-pter	2A/	(pro)-	.	.
=63-	=63-	=63-	=63-	=63-	=63-	=63-	=63-
2A\	p(ro)-	4D/	no-	2A/	-pter	2r	.
.	.	4E/	.	.	.	.	.
!LO:SIC:v:t=custos D	!	!	!	!	!	!	!
2A\	-pter	4F/	.	4D/	no-	2f\	et
.	.	4G/	.	4E/	.	.	.
!LO:LB:g=original	!	!	!	!	!	!LO:SIC:v:t=custos f	!
4D/	no-	2A\	.	4F/	.	2f\	(pro)-
4E\	.	.	.	4G/	.	.	.
!	!	!	!	!	!	!LO:LB:g=original	!
4F\	.	2d\	.	4A/	.	2f\	-pter
4G\	.	.	.	4B\	.	.	.
=64-	=64-	=64-	=64-	=64-	=64-	=64-	=64-
4A\	.	1cny\	.	2c\	.	1e\	no-
4B\	.	.	.	.	.	.	.
1c\	.	.	.	2C/	-ſtra(m)	.	.
.	.	1G/	.	1D/	ſa-	2g\	-ſtra(m)
2B\	-ſtra(m)	.	.	.	.	2g\	ſa-
=65-	=65-	=65-	=65-	=65-	=65-	=65-	=65-
1A\	ſa-	2c\	-ſtra(m)	2.E/	-lu-	1a\	-lu-
.	.	2.c\	ſa-	.	.	.	.
.	.	.	.	4F/	.	.	.
2.G\	-lu-	.	.	2G/	.	2.d\	.
.	.	4B\	.	.	.	.	.
.	.	4B\	.	1D/	-tem	.	.
8F\L	.	8A/L	.	.	.	4e\	.
8E\J	.	8G/J	.	.	.	.	.
=66-	=66-	=66-	=66-	=66-	=66-	=66-	=66-
2D/	.	4A/	.	.	.	2f\	.
.	.	4B\	.	.	.	.	.
2E\	.	1c\	.	2G/	de-	2e\	.
2F\	.	.	.	2A/	-ſcen-	1d\	.
2G\	.	2B\	.	1G/	-dit	.	.
=67-	=67-	=67-	=67-	=67-	=67-	=67-	=67-
1C/	tem	2c\	lu-	.	.	2.c/	-tem
.	.	1C/	-tem	2c\	de	.	.
.	.	.	.	.	.	4d\	.
2r	.	.	.	4c\	(cae)-	2e\	.
.	.	.	.	4B\	.	.	.
2C/	de-	1c\	de-	4c\	.	2g\	de-
.	.	.	.	4d\	.	.	.
=68-	=68-	=68-	=68-	=68-	=68-	=68-	=68-
1C/	-ſcen-	.	.	2e\	.	2g\	-ſcen-
.	.	2.G/	-ſcen-	4d\	.	2e\	-dit
.	.	.	.	4c\	.	.	.
0GG/	-dit	.	.	2B\	.	2d\	de
.	.	4A/	.	.	.	.	.
.	.	4B\	.	2d\	.	2g\	cae-
.	.	4c\	.	.	.	.	.
=69-	=69-	=69-	=69-	=69-	=69-	=69-	=69-
!	!	!LO:SIC:v:t=custos A	!	!	!	!	!
.	.	1d\	dit	0d\	lis	2g\	-lis
.	.	.	.	.	.	2.d\	de-
!	!	!LO:LB:g=original	!	!	!	!	!
2r	.	2r	.	.	.	.	.
.	.	.	.	.	.	8c/L	.
.	.	.	.	.	.	8B/J	.
2D/	de-	2A/	de	.	.	2A/	.
=70-	=70-	=70-	=70-	=70-	=70-	=70-	=70-
*	*	*	*	*lig	*	*	*
1D\	-ſcen-	1A\	cae-	1A\	de-	1.d\	-ſcen-
!	!	!	!	!LO:SIC:v:t=custos c	!	!	!
1GG/	-dit	0G/	-lis	1B\	.	.	.
.	.	.	.	.	.	2B/	-dit
*	*	*	*	*Xlig	*	*	*
!	!	!	!	!LO:PB:g=original	!	!	!
=71-	=71-	=71-	=71-	=71-	=71-	=71-	=71-
2.C/	de	.	.	2c\	-ſcen-	2e\	de
.	.	.	.	2G/	-dit	2.c/	cae-
4BB/	.	.	.	.	.	.	.
*	*	*	*ij	*	*	*	*
1AA/	.	1C/	de	1.A\	de	.	.
.	.	.	.	.	.	4d\	.
.	.	.	.	.	.	2.e\	.
=72-	=72-	=72-	=72-	=72-	=72-	=72-	=72-
0E\	cae-	0E/	cae-	.	.	.	.
.	.	.	.	.	.	8d\	.
.	.	.	.	.	.	8c/	.
.	.	.	.	4G/	.	1B/	.
!	!	!	!	!LO:TX:t=P:problem:♯below	!	!	!
.	.	.	.	4F#X/	.	.	.
.	.	.	.	1GX/	cae-	.	.
.	.	.	.	.	.	2e\	.
=73-	=73-	=73-	=73-	=73-	=73-	=73-	=73-
!	!	!	!	!	!	!LO:TX:t=P:problem:# below	!
0AA/l	-lis.	0E/l	-lis	0A\l	-lis.	0c#X\	-lis.
*	*	*	*Xij	*	*	*	*
!LO:LB:g=original	!	!	!	!	!	!LO:LB:g=original	!
=74||-	=74||-	=74||-	=74||-	=74||-	=74||-	=74||-	=74||-
*M2/1	*	*M2/1	*	*M2/1	*	*M2/1	*
*met(C|)	*	*met(C|)	*	*met(C|)	*	*met(C|)	*
0D\	ET	2r	.	0A\	ET	0d\	ET
.	.	4D/	ET	.	.	.	.
.	.	4E/	.	.	.	.	.
.	.	4F/	.	.	.	.	.
.	.	4G/	.	.	.	.	.
.	.	2.A/	.	.	.	.	.
=75-	=75-	=75-	=75-	=75-	=75-	=75-	=75-
*	*	*	*	*	*	*lig	*
1AA/	in-	.	.	1A\	in-	1e\	in-
.	.	4E/	.	.	.	.	.
.	.	2A/	.	.	.	.	.
1D\	-car-	2F/	in-	2A\	-car-	1.d\	.
.	.	2A/	-car-	4d\	-na-	.	.
.	.	.	.	4c\	.	.	.
*	*	*	*	*	*	*Xlig	*
=76-	=76-	=76-	=76-	=76-	=76-	=76-	=76-
1GG/	-na-	1G/	-na-	4B\	.	.	.
.	.	.	.	4A/	.	.	.
.	.	.	.	2B\	.	2B/	car-
1.C/	.	2.G/	-tus	2c\	tus	1.e\	-na-
.	.	.	.	2c\	(est)	.	.
.	.	4F/	.	.	.	.	.
=77-	=77-	=77-	=77-	=77-	=77-	=77-	=77-
.	.	4E/	.	2G/	.	.	.
.	.	8D/L	.	.	.	.	.
.	.	8C/J	.	.	.	.	.
2GG/	-tus	2D/	.	4G/	de	2B/	-tus
.	.	.	.	2d\	Spi-	.	.
2D\	e(st)	2D/	eſt	.	.	2d\	e(st)
.	.	.	.	4A/	-ri-	.	.
2A\	de	2r	.	4A/	-tu	2e\	de
.	.	.	.	4A/	San-	.	.
=78-	=78-	=78-	=78-	=78-	=78-	=78-	=78-
1A\	Spi-	1c#X\	de	1.A\	-cto	2.e\	Spi-
.	.	.	.	.	.	4e\	-ri-
1D\	-ri-	2d\	ſpi-	.	.	1f#X\	-tu
.	.	2A/	-ri-	2B\	.	.	.
=79-	=79-	=79-	=79-	=79-	=79-	=79-	=79-
!	!	!LO:SIC:v:t=custos d	!	!	!	!	!
2E\	-tu	2e\	-tu	2c\	.	2.g\	ſan-
!	!	!LO:LB:g=original	!	!	!	!	!
1G\	San-	4d\	San-	4B\	(S)an-	.	.
.	.	4cny\	.	4A/	.	8fny\L	.
.	.	.	.	.	.	8e\J	.
.	.	2B\	.	2G/	.	4d\	.
.	.	.	.	.	.	4e\	.
2F\	.	2A/	.	1d\	.	4f\	.
.	.	.	.	.	.	4d\	.
=80-	=80-	=80-	=80-	=80-	=80-	=80-	=80-
1E\	.	1G/	.	.	.	4e\	.
.	.	.	.	.	.	4f\	.
.	.	.	.	2c#X\	.	1g\	.
!	!	!	!	!LO:SIC:v:t=custos A	!	!	!
0D\	-cto	0A\	-cto	0d\	cto	.	.
.	.	.	.	.	.	4f\	.
.	.	.	.	.	.	4e\	.
=81-	=81-	=81-	=81-	=81-	=81-	=81-	=81-
.	.	.	.	.	.	2f\	.
.	.	.	.	.	.	2d\	-cto
!	!	!	!	!LO:LB:g=original	!	!	!
1F\	Ex	2.A/	Ex	1A\	Ex	2r	.
.	.	.	.	.	.	2d\	Ex
.	.	4B\	.	.	.	.	.
=82-	=82-	=82-	=82-	=82-	=82-	=82-	=82-
2.E\	Ma-	2c\	.	2.G/	Ma-	4e\	Ma-
.	.	.	.	.	.	4f\	.
.	.	4B\	.	.	.	4g\	.
4F\	.	4A/	.	8Fny/L	.	4a\	.
.	.	.	.	8E/J	.	.	.
*	*	*	*	*lig	*	*	*
1G\	.	4B\	.	1D/	.	2.g\	.
.	.	4c\	.	.	.	.	.
.	.	1d\	.	.	.	.	.
!	!	!	!	!	!	!LO:SIC:v:t=custos e	!
.	.	.	.	.	.	4f\	.
!	!	!	!	!	!	!LO:LB:g=original	!
=83-	=83-	=83-	=83-	=83-	=83-	=83-	=83-
*lig	*	*	*	*	*	*	*
*col	*	*	*	*	*	*	*
1A\	-ri-	.	.	1A\	.	4e\	.
.	.	.	.	.	.	4d\	.
.	.	2c\	Ma-	.	.	2e\	.
*	*	*	*	*Xlig	*	*	*
2.D\	.	2d\	-ri-	1.A\	-ri-	2.f\	-ri-
.	.	1A\	-a	.	.	.	.
*Xlig	*	*	*	*	*	*	*
*Xcol	*	*	*	*	*	*	*
4E\	.	.	.	.	.	8e\L	.
.	.	.	.	.	.	8d\J	.
=84-	=84-	=84-	=84-	=84-	=84-	=84-	=84-
2F\	-a	.	.	.	.	2cny/	.
2E\	.	1c\	Vir-	2G/	-a	2c/	-a
2D/	Vir-	.	.	2F/	Vir-	2d\	Vir-
2D/	-gi-	2B\	-gi-	2F/	-gi-	2d\	-gi-
=85-	=85-	=85-	=85-	=85-	=85-	=85-	=85-
1C/	-ne	1c\	-ne	1E/	-ne	1G/	-ne
0C/	Et	2c\	et	0e\	Et	0g\	Et
.	.	2.c\	Ho-	.	.	.	.
=86-	=86-	=86-	=86-	=86-	=86-	=86-	=86-
.	.	.	.	.	.	.	.
.	.	8B\L	.	.	.	.	.
.	.	8A\J	.	.	.	.	.
.	.	4G/	.	.	.	.	.
.	.	4A/	.	.	.	.	.
1G\	ho-	4B\	.	2.d\	ho-	0g\	ho-
.	.	4c\	.	.	.	.	.
.	.	2d\	.	.	.	.	.
.	.	.	.	8cny\L	.	.	.
.	.	.	.	8d\J	.	.	.
=87-	=87-	=87-	=87-	=87-	=87-	=87-	=87-
1C/	-mo	4c\	.	1e\	.	.	.
.	.	8B\L	.	.	.	.	.
.	.	8A\J	.	.	.	.	.
.	.	2G/	.	.	.	.	.
2.F\	fa-	2.A/	-mo	1c\	-mo	2f\	-mo
.	.	.	.	.	.	2.F/	fa-
!LO:SIC:v:t=custos D	!	!	!	!	!	!	!
4E\	.	4G/	.	.	.	.	.
!LO:LB:g=original	!	!	!	!	!	!	!
=88-	=88-	=88-	=88-	=88-	=88-	=88-	=88-
*lig	*	*	*	*	*	*	*
1D\	.	2F/	fa-	1.d\	fa-	.	.
.	.	.	.	.	.	4G/	.
!	!	!	!	!	!	!LO:TX:t=P:problem:niezgodny pion harmoniczy	!
!	!	!	!	!	!	!LO:TX:b:t=P:problem:# below	!
.	.	4E/	.	.	.	2.A#X/	.
.	.	4D/	.	.	.	.	.
1.AA/	.	1.E/	.	.	.	.	.
.	.	.	.	.	.	4B/	.
!	!	!	!	!LO:TX:t=P:problem:♯below	!	!	!
.	.	.	.	4c#X\	.	4c/	.
.	.	.	.	4B\	.	4d\	.
*Xlig	*	*	*	*	*	*	*
=89-	=89-	=89-	=89-	=89-	=89-	=89-	=89-
.	.	.	.	2c#X\	.	2e\	.
2AA/	-ctu(s)	2A/	-ctus	2c#\	-ctus	2e\	-ctus
1D\l	e(ſt)	1A\l	eſt	1d\l	eſt	1f#X\	e(st).
!	!	!LO:PB:g=original	!	!LO:LB:g=original	!	!LO:LB:g=original	!
=90||-	=90||-	=90||-	=90||-	=90||-	=90||-	=90||-	=90||-
*M2/1	*	*M2/1	*	*M2/1	*	*M2/1	*
*met(C|)	*	*met(C|)	*	*met(C|)	*	*met(C|)	*
00r	.	1r	.	00r	.	1Any/	CRu-
.	.	1D/	CRu-	.	.	1d\	-ci-
=91-	=91-	=91-	=91-	=91-	=91-	=91-	=91-
.	.	1A\	-ci-	.	.	2e\	-fi-
.	.	.	.	.	.	2c/	-xus
.	.	2B#X\	-fi-	.	.	2.d\	e-
.	.	2G/	-xus	.	.	.	.
.	.	.	.	.	.	4e\	.
=92-	=92-	=92-	=92-	=92-	=92-	=92-	=92-
0r	.	2A/	e-	00r	.	4fny\	.
.	.	.	.	.	.	4e\	.
.	.	2Bny\	-ti-	.	.	1g\	.
.	.	4c\	-am	.	.	.	.
.	.	4A/	.	.	.	.	.
.	.	1d\	&	.	.	2f\	-ti-
=93-	=93-	=93-	=93-	=93-	=93-	=93-	=93-
*	*	*	*	*	*	*lig	*
*	*	*	*	*	*	*col	*
1AA/	CRu-	.	.	.	.	1e\	-am
.	.	2c\	no-	.	.	.	.
1D\	-ci-	2B\	.	.	.	2.d\	.
.	.	2A/	.	.	.	.	.
*	*	*	*	*	*	*Xlig	*
*	*	*	*	*	*	*Xcol	*
.	.	.	.	.	.	4c/	.
=94-	=94-	=94-	=94-	=94-	=94-	=94-	=94-
2E\	-fi-	4G/	.	0r	.	2B/	.
.	.	8F/L	.	.	.	.	.
.	.	8G/J	.	.	.	.	.
2C/	-xus	1A\	.	.	.	2c/	&
2D/	e-	.	.	.	.	2.B/	no-
2E\	-ti-	2G#X/	.	.	.	.	.
.	.	.	.	.	.	4c/	.
=95-	=95-	=95-	=95-	=95-	=95-	=95-	=95-
4F\	-am	2A/	-bis	2r	.	2.d\	.
4D/	.	.	.	.	.	.	.
1G\	.	4B\	&	2G/	CRu-	.	.
.	.	4A/	.	.	.	4c/	.
.	.	4B\	.	1d\	-ci-	2B/	.
.	.	4c\	.	.	.	.	.
2F\	.	2d\	.	.	.	2A/	.
=96-	=96-	=96-	=96-	=96-	=96-	=96-	=96-
*lig	*	*	*	*	*	*	*
1E\	.	1Gny/	no-	2e\	-fi-	4B/	.
.	.	.	.	.	.	4G/	.
.	.	.	.	2cny\	-xus	1g\	.
1.D\	.	1A\	-bis	2.d\	e-	.	.
.	.	.	.	.	.	4f\	.
!	!	!	!	!	!	!LO:SIC:v:t=custos d	!
.	.	.	.	4e\	.	4e\	.
*Xlig	*	*	*	*	*	*	*
!	!	!	!	!	!	!LO:PB:g=original	!
=97-	=97-	=97-	=97-	=97-	=97-	=97-	=97-
.	.	1r	.	2f\	.	2d\	.
2C#X/	&	.	.	2e\	-ti-	2.e\	.
!	!	!LO:SIC:v:t=custos A	!	!	!	!	!
1D\	no-	1A\	ſub	1f\	-am	.	.
.	.	.	.	.	.	4d\	.
.	.	.	.	.	.	4d\	.
.	.	.	.	.	.	8c/L	.
.	.	.	.	.	.	8B/J	.
!	!	!LO:LB:g=original	!	!	!	!	!
=98-	=98-	=98-	=98-	=98-	=98-	=98-	=98-
!LO:SIC:v:t=custos A	!	!	!	!	!	!	!
0AA/	-bis	1.A\	Pon-	2e\	&	2c/	.
.	.	.	.	1d\	no-	2f\	.
.	.	.	.	.	.	2e\	-bis
.	.	2A/	-ti-	2c\	.	2a\	ſub
!LO:PB:g=original	!	!	!	!	!	!	!
=99-	=99-	=99-	=99-	=99-	=99-	=99-	=99-
00r	.	2.D/	-o	2.d\	.	2a\	Pon-
.	.	.	.	.	.	2a\	-ti-
.	.	4E/	.	8c\L	.	.	.
.	.	.	.	8B\J	.	.	.
.	.	2F#X/	.	2A/	.	0d\	-o
.	.	1G/	.	4B\	.	.	.
.	.	.	.	4A/	.	.	.
=100-	=100-	=100-	=100-	=100-	=100-	=100-	=100-
.	.	.	.	4B\	.	.	.
.	.	.	.	4c\	.	.	.
.	.	2Fny/	Pi-	1d\	.	.	.
*	*	*lig	*	*	*	*	*
.	.	1E/	-la-	.	.	2e\	Pi-
.	.	.	.	2c\	.	1g\	-la-
=101-	=101-	=101-	=101-	=101-	=101-	=101-	=101-
1r	.	1D/	.	4B\	.	.	.
.	.	.	.	4A/	.	.	.
.	.	.	.	1d\	.	2f\	.
*	*	*Xlig	*	*	*	*	*
2r	.	1A\	.	.	.	1e\	.
!	!	!	!	!LO:SIC:v:t=custos d	!	!	!
2A\	ſub	.	.	2c#X\	.	.	.
!	!	!	!	!LO:LB:g=original	!	!	!
=102-	=102-	=102-	=102-	=102-	=102-	=102-	=102-
2A\	Pon-	1D/	-to	2d\	-bis	2d\	-to
2A\	-ti-	.	.	2A/	Sub	1f\	ſub
0D\	-o	2r	.	2A/	Pon-	.	.
.	.	2d\	ſub	2A/	-ti-	4f\	Pon-
.	.	.	.	.	.	4e\	.
=103-	=103-	=103-	=103-	=103-	=103-	=103-	=103-
.	.	2d\	Pon-	2D/	-o	4f\	.
.	.	.	.	.	.	4g\	.
.	.	2d\	-ti-	2F/	Pi-	4a\	.
.	.	.	.	.	.	4A/	.
2E\	Pi-	2.G/	-o	4G/	.	2c/	.
.	.	.	.	4A/	.	.	.
1G\	-la-	.	.	2.B\	.	4B/	.
.	.	4A/	.	.	.	4A/	.
=104-	=104-	=104-	=104-	=104-	=104-	=104-	=104-
.	.	2B\	.	.	.	2G/	.
.	.	.	.	4cny\	.	.	.
2F\	.	2A/	Pi-	1d\	.	2d\	.
1E\	.	1G/	-la-	.	.	4e\	-ti-
.	.	.	.	.	.	4e\	-o
.	.	.	.	2c#X\	la-	1g\	Pi-
=105-	=105-	=105-	=105-	=105-	=105-	=105-	=105-
1D\	-to	1A\	-to	1d\	-to	.	.
.	.	.	.	.	.	2f\	.
2r	.	0c\	Paſ-	1r	.	0e\	-la-
2.Cny/	paſ-	.	.	.	.	.	.
=106-	=106-	=106-	=106-	=106-	=106-	=106-	=106-
.	.	.	.	1G/	Paſ-	.	.
4D/	.	.	.	.	.	.	.
4E\	.	.	.	.	.	.	.
4F\	.	.	.	.	.	.	.
1.G\	.	2.B\	-sus	2.G/	-sus	1d\	-to
.	.	4c\	.	4A/	.	.	.
!	!	!	!	!	!	!LO:LB:g=original	!
=107-	=107-	=107-	=107-	=107-	=107-	=107-	=107-
*	*	*lig	*	*	*	*	*
.	.	1d\	.	4B\	.	00r	.
.	.	.	.	4cny\	.	.	.
2F\	-sus	.	.	2d\	.	.	.
2E\	.	1e\	.	2c\	.	.	.
2E\	et	.	.	4B\	.	.	.
.	.	.	.	4c\	.	.	.
*	*	*Xlig	*	*	*	*	*
=108-	=108-	=108-	=108-	=108-	=108-	=108-	=108-
2.F\	ſe-	2.A/	et	4d\	.	.	.
.	.	.	.	8c\L	.	.	.
.	.	.	.	8B\J	.	.	.
.	.	.	.	4c\	.	.	.
8E\L	-pul-	4B\	.	4d\	.	.	.
8D\J	.	.	.	.	.	.	.
2C/	.	2c\	.	2e\	.	.	.
!	!	!LO:TX:t=P:problem:custos wskazuje nie ten dźwięk	!	!	!	!	!
!	!	!LO:SIC:v:t=custos A	!	!	!	!	!
2GG/	.	2B\	ſe-	2d\	.	.	.
!	!	!LO:LB:g=original	!	!	!	!	!
=109-	=109-	=109-	=109-	=109-	=109-	=109-	=109-
2AA/	.	2B\	-pul-	2c\	.	0r	.
2AA/	tus	1A\	-tus	2c\	et	.	.
0E\	e(ſt)	.	.	0B\	ſe-	.	.
.	.	4G/	.	.	.	.	.
.	.	4F#X/	.	.	.	.	.
=110-	=110-	=110-	=110-	=110-	=110-	=110-	=110-
.	.	1G#X/	eſt	.	.	1r	.
*lig	*	*	*	*	*	*	*
*col	*	*	*	*	*	*	*
1F\	paſ-	2r	.	2.A/	-pul-	2.c/	Paſ-
.	.	1c\	Paſ-	.	.	.	.
!	!	!	!	!LO:SIC:v:t=custos c	!	!	!
.	.	.	.	4B\	.	4d\	.
!	!	!	!	!LO:LB:g=original	!	!	!
=111-	=111-	=111-	=111-	=111-	=111-	=111-	=111-
2.E\	.	.	.	4c\	.	4e\	.
.	.	.	.	4d\	.	4f\	.
.	.	2.B\	.	2e\	.	1g\	.
*Xlig	*	*	*	*	*	*	*
*Xcol	*	*	*	*	*	*	*
4F\	.	.	.	.	.	.	.
2G\	.	.	.	2B\	.	.	.
.	.	4c\	.	.	.	.	.
!LO:SIC:v:t=custos AA	!	!	!	!	!	!	!
2D/	.	1d\	.	2A/	-tus	2f\	.
!LO:LB:g=original	!	!	!	!	!	!	!
=112-	=112-	=112-	=112-	=112-	=112-	=112-	=112-
0AA/	.	.	.	0.A\	e(st).	0e\	sus
.	.	4c\	.	.	.	.	.
.	.	4B\	.	.	.	.	.
!	!	!LO:TX:b:t=P:problem:# below	!	!	!	!	!
.	.	1c#X\	.	.	.	.	.
=113-	=113-	=113-	=113-	=113-	=113-	=113-	=113-
*	*	*	*	*	*	*lig	*
*	*	*	*	*	*	*col	*
2D/	-ſus	2d\	-sis	.	.	1f\	et
4F\	paſ-	4A/	et	.	.	.	.
4G\	.	4B\	.	.	.	.	.
4A\	.	4cny\	.	0r	.	2.e\	.
4B\	.	4d\	.	.	.	.	.
1c\	.	2e\	.	.	.	.	.
*	*	*	*	*	*	*Xlig	*
*	*	*	*	*	*	*Xcol	*
.	.	.	.	.	.	4f\	.
=114-	=114-	=114-	=114-	=114-	=114-	=114-	=114-
.	.	1E/	ſe-	.	.	1g\	.
2B\	-sus	.	.	.	.	.	.
2A\	et	4Fny/	-pul-	1f\	Paſ-	0a\	ſe-
.	.	4Gny/	.	.	.	.	.
2F\	ſe-	4A/	.	.	.	.	.
.	.	4B\	.	.	.	.	.
=115-	=115-	=115-	=115-	=115-	=115-	=115-	=115-
2A\	-pul-	1.c\	.	2e\	-sus	.	.
2A\	-tus	.	.	4d\	.	.	.
.	.	.	.	4c\	.	.	.
1G\	e(st)	.	.	2d\	.	2.d\	-pul-
.	.	2B\	-tus	2G/	et	.	.
.	.	.	.	.	.	4e\	.
=116-	=116-	=116-	=116-	=116-	=116-	=116-	=116-
4D/	.	2A/	e(st)	0A\	ſe-	1.f\	.
4E\	et	.	.	.	.	.	.
4F\	.	1d\	et	.	.	.	.
4G\	.	.	.	.	.	.	.
2A\	.	.	.	.	.	.	.
2A\	.	2.c\	ſe-	.	.	2e\	-tus
=117-	=117-	=117-	=117-	=117-	=117-	=117-	=117-
2.G\	ſe-	.	.	2.d\	-pul-	2g\	e(st)
.	.	4B\	.	.	.	.	.
.	.	4B\	.	.	.	1d\	et
8F\L	-pul-	8A/L	.	4e\	.	.	.
8E\J	.	8G/J	.	.	.	.	.
2D/	.	1A\	.	2f\	.	.	.
*	*	*	*	*lig	*	*	*
4AA/	.	.	.	1e\	.	4c/	ſe-
4BB/	.	.	.	.	.	4d\	.
=118-	=118-	=118-	=118-	=118-	=118-	=118-	=118-
4C/	.	0A\	-pul-	.	.	4e\	.
8BB/L	.	.	.	.	.	8d\L	.
8C/J	.	.	.	.	.	8e\J	.
2D/	.	.	.	1d\	.	2f\	.
*lig	*	*	*	*	*	*	*
1AA/	.	.	.	.	.	1e\	-pul-
*	*	*	*	*Xlig	*	*	*
.	.	.	.	2c#X\	.	.	.
=119-	=119-	=119-	=119-	=119-	=119-	=119-	=119-
1.D\	.	0A\	-tus	2.d\	.	2.f\	.
.	.	.	.	4e\	.	4e\	.
.	.	.	.	2f\	.	4d\	.
.	.	.	.	.	.	4A/	.
*Xlig	*	*	*	*	*	*	*
2D\	-tus	.	.	2f\	-tus	1d\	.
=120-	=120-	=120-	=120-	=120-	=120-	=120-	=120-
0AA/	eſt.	0A\	eſt.	0e\	e(st).	.	.
.	.	.	.	.	.	4c/	.
.	.	.	.	.	.	4B/	-tus
!	!	!	!	!	!	!LO:TX:b:t=P:problem:# below	!
.	.	.	.	.	.	1c#X\	est.
!	!	!LO:LB:g=original	!	!LO:PB:g=original	!	!LO:LB:g=original	!
=121||-	=121||-	=121||-	=121||-	=121||-	=121||-	=121||-	=121||-
*M2/1	*	*M2/1	*	*M2/1	*	*M2/1	*
*met(C|)	*	*met(C|)	*	*met(C|)	*	*met(C|)	*
1AA/	ET	2r	.	00r	.	00r	.
.	.	1A\	ET	.	.	.	.
1C/	re-	.	.	.	.	.	.
.	.	1c\	re-	.	.	.	.
=122-	=122-	=122-	=122-	=122-	=122-	=122-	=122-
2AA/	-ſur-	.	.	.	.	.	.
2.C/	-re-	2A/	-ſur-	.	.	.	.
*	*	*lig	*	*	*	*	*
.	.	1c\	-re-	.	.	.	.
4BB/	.	.	.	.	.	.	.
1AA/	.	.	.	.	.	.	.
=123-	=123-	=123-	=123-	=123-	=123-	=123-	=123-
.	.	1B\	.	1r	.	1r	.
2GG#X/	.	.	.	.	.	.	.
*	*	*Xlig	*	*	*	*	*
!LO:TX:a:t=4	!	!	!	!	!	!	!
00AA/	.	4A/	.	2r	.	1A/	ET
.	.	4B\	.	.	.	.	.
.	.	4c\	.	1A\	ET	.	.
.	.	4d\	.	.	.	.	.
=124-	=124-	=124-	=124-	=124-	=124-	=124-	=124-
.	.	1e\	.	.	.	1cny\	re-
.	.	.	.	1cny\	re-	.	.
.	.	0E/	-xit	.	.	2A/	-ſur-
.	.	.	.	2A/	-ſur-	2.c\	-re-
=125-	=125-	=125-	=125-	=125-	=125-	=125-	=125-
*	*	*	*	*lig	*	*	*
.	.	.	.	1c\	-re-	.	.
.	.	.	.	.	.	4B/	.
.	.	.	.	.	.	1A/	.
1E\	-xit	2r	.	1B\	.	.	.
.	.	2.e\	ter-	.	.	2G#X/	.
*	*	*	*	*Xlig	*	*	*
=126-	=126-	=126-	=126-	=126-	=126-	=126-	=126-
1.A\	ter-	.	.	2.A/	.	1A/	-xit
.	.	4d\	.	.	.	.	.
.	.	4c\	.	.	.	.	.
.	.	4d\	.	8G/L	.	.	.
.	.	.	.	8F/J	.	.	.
.	.	4e\	.	2E/	.	2c/	ter-
.	.	4c\	.	.	.	.	.
2G\	-ti-	4d\	.	2G/	.	2B/	-ti-
.	.	4e\	.	.	.	.	.
=127-	=127-	=127-	=127-	=127-	=127-	=127-	=127-
1F\	-a	2f\	.	1c\	.	1A/	-a
.	.	1F/	-ti-	.	.	.	.
0C/	di-	.	.	[<0c\	-xit	0Gny/	di-
.	.	4E/	-a	.	.	.	.
.	.	4D/	.	.	.	.	.
=128-	=128-	=128-	=128-	=128-	=128-	=128-	=128-
.	.	1E/	di-	.	.	.	.
1F\	-e	0F/	-e	0c\]	.	2A/	-e
.	.	.	.	.	.	2F/	ſe-
=129-	=129-	=129-	=129-	=129-	=129-	=129-	=129-
2r	.	.	.	.	.	1f\	-cun-
2F\	ſe-	.	.	.	.	.	.
1A\	-cun-	2r	.	2r	.	1e\	-du(m)
.	.	2c\	ſe-	2A/	ter-	.	.
=130-	=130-	=130-	=130-	=130-	=130-	=130-	=130-
!	!	!LO:SIC:v:t=custos d	!	!	!	!	!
1E\	-du(m)	1e\	-cun-	2B\	-ti-	0g\	ſcri-
.	.	.	.	2.c\	-a	.	.
!	!	!LO:LB:g=original	!	!	!	!	!
1G\	ſcrip-	1d\	-dum	.	.	.	.
.	.	.	.	8B\L	.	.	.
.	.	.	.	8A\J	.	.	.
.	.	.	.	2B\	.	.	.
=131-	=131-	=131-	=131-	=131-	=131-	=131-	=131-
2.A\	-tu-	2c\	ſcrip-	0A\	di-	1e\	-ptu-
.	.	2.e\	-tu-	.	.	.	.
4G\	.	.	.	.	.	.	.
!LO:SIC:v:t=custos E	!	!	!	!	!	!	!
2F\	.	.	.	.	.	1f\	.
.	.	4d\	.	.	.	.	.
!LO:LB:g=original	!	!	!	!	!	!	!
4E\	.	1d\	.	.	.	.	.
4D/	.	.	.	.	.	.	.
=132-	=132-	=132-	=132-	=132-	=132-	=132-	=132-
1AA/	.	.	.	0A\	-e	1e\	.
.	.	2c#X\	.	.	.	.	.
1D\	-ras	2d\	-ras	.	.	4d\	-ras
.	.	.	.	.	.	4e\	.
.	.	1A\	ſe-	.	.	4f\	.
.	.	.	.	.	.	4g\	.
=133-	=133-	=133-	=133-	=133-	=133-	=133-	=133-
!	!	!	!	!	!	!LO:SIC:v:t=custos d	!
1D\	Et	.	.	0r	.	1a\	.
.	.	2d\	-cun-	.	.	.	.
!	!	!	!	!	!	!LO:LB:g=original	!
1AA/	a-	2e\	.	.	.	0r	.
.	.	2cny\	-dum	.	.	.	.
=134-	=134-	=134-	=134-	=134-	=134-	=134-	=134-
2BB/	-ſcen-	2.d\	ſcri-	2r	.	.	.
2GGny/	-dit	.	.	2d\	et	.	.
.	.	4e\	.	.	.	.	.
2AA/	in	2f\	-ptu-	2c\	a-	2r	.
!	!	!	!	!LO:SIC:v:t=custos A	!	!	!
2BB/	cae-	4e\	.	2B\	-ſcen-	2d\	et
.	.	4d\	.	.	.	.	.
!	!	!	!	!LO:LB:g=original	!	!	!
=135-	=135-	=135-	=135-	=135-	=135-	=135-	=135-
2C/	.	2e\	-ras	2A/	-dit	2c/	aſ-
1D\	.	1f\	ſe-	1r	.	2B/	-cen-
.	.	.	.	.	.	2A/	-dit
2C/	.	2e\	-cun-	2r	.	1e\	in
=136-	=136-	=136-	=136-	=136-	=136-	=136-	=136-
*lig	*	*	*	*	*	*	*
1BB/	.	2d\	-du(m)	1D/	Et	.	.
.	.	2D/	-ſcrip-	.	.	1d\	cae-
1AA/	.	2F/	-tu-	1A\	a-	.	.
.	.	2E/	-ras	.	.	2c#X/	-lu(m)
*Xlig	*	*	*	*	*	*	*
=137-	=137-	=137-	=137-	=137-	=137-	=137-	=137-
1GG/	.	1r	.	2B\	-ſcen-	2.d\	in
.	.	.	.	2G/	-dit	.	.
.	.	.	.	.	.	4e\	.
1D\	-lum	1D/	Et	2.A/	in	2f\	.
.	.	.	.	.	.	2.f\	cae-
.	.	.	.	4B\	.	.	.
=138-	=138-	=138-	=138-	=138-	=138-	=138-	=138-
0r	.	1A\	a-	1c\	.	.	.
.	.	.	.	.	.	4g\	.
.	.	.	.	.	.	2a\	.
.	.	2B\	-ſcen-	1.d\	.	1g\	.
.	.	2G/	-dit	.	.	.	.
=139-	=139-	=139-	=139-	=139-	=139-	=139-	=139-
1.A\	in	2.A/	in	.	.	1e\	-lum
.	.	.	.	1c\	.	.	.
.	.	4B\	.	.	.	.	.
!	!	!LO:SIC:v:t=custos d	!	!	!	!	!
.	.	2c\	.	.	.	0r	.
!	!	!LO:PB:g=original	!	!	!	!	!
2G\	.	1d\	cae-	2.B\	.	.	.
=140-	=140-	=140-	=140-	=140-	=140-	=140-	=140-
*lig	*	*	*	*	*	*	*
1A\	cae-	.	.	.	.	.	.
.	.	.	.	4A/	.	.	.
.	.	2c\	.	1A\	.	.	.
1E\	.	1B\	-lum	.	.	2r	.
.	.	.	.	2G#X/	cae-	2e\	ſe-
*Xlig	*	*	*	*	*	*	*
=141-	=141-	=141-	=141-	=141-	=141-	=141-	=141-
1AA/	-lum	2e\	ſe-	0A\	-lu(m)	2e\	-det
.	.	2e\	-det	.	.	2e\	ad
2r	.	2e\	ad	.	.	4A/	dex-
.	.	.	.	.	.	4B/	.
2A\	ſe-	4A/	dex-	.	.	4cny/	.
.	.	4B\	.	.	.	4d\	.
=142-	=142-	=142-	=142-	=142-	=142-	=142-	=142-
2A\	-det	4c\	.	1r	.	2e\	.
.	.	4d\	.	.	.	.	.
2A\	ad	4e\	.	.	.	2c/	-te-
.	.	8d\L	.	.	.	.	.
.	.	8e\J	.	.	.	.	.
*	*	*lig	*	*	*	*	*
4D/	dex-	1f\	-te-	1A\	ſe-	4d\	-ram
4E\	.	.	.	.	.	8c/L	.
.	.	.	.	.	.	8B/J	.
4F\	.	.	.	.	.	4A/	.
!LO:SIC:v:t=custos A	!	!	!	!	!	!	!
4G\	.	.	.	.	.	4B/	.
!LO:LB:g=original	!	!	!	!	!	!	!
=143-	=143-	=143-	=143-	=143-	=143-	=143-	=143-
2A\	.	1e\	.	2A/	-det	2c/	.
!	!	!	!	!	!	!LO:SIC:v:t=custos B	!
2AA/	te-	.	.	2A/	ad	2c/	Pa-
!	!	!	!	!	!	!LO:LB:g=original	!
*	*	*Xlig	*	*	*	*lig	*
1BB/	-ra(m)	1d\	-ram	1D/	dex-	1B/	.
=144-	=144-	=144-	=144-	=144-	=144-	=144-	=144-
2C/	Pa-	4c\	Pa-	1E/	.	1A/	.
.	.	4B\	.	.	.	.	.
2AA/	.	4c\	.	.	.	.	.
.	.	4A/	.	.	.	.	.
*	*	*	*	*	*	*Xlig	*
1GG/	.	4B\	.	1.Gny/	.	1d\	-tris
.	.	4c\	.	.	.	.	.
.	.	4d\	.	.	.	.	.
.	.	4B\	.	.	.	.	.
=145-	=145-	=145-	=145-	=145-	=145-	=145-	=145-
0AA/	.	2c#X\	.	.	.	1r	.
.	.	1d\	.	2F/	te-	.	.
.	.	.	.	1E/	-ra(m)	2r	.
!	!	!LO:TX:t=P:problem:♯below	!	!	!	!	!
.	.	2c#X\	.	.	.	2a\	ſe-
=146-	=146-	=146-	=146-	=146-	=146-	=146-	=146-
1D\	-tris	2d\	tris	2.D/	Pa-	2a\	-det
.	.	2A/	ſe-	.	.	2a\	ad
.	.	.	.	4E/	.	.	.
2r	.	2A/	-det	1F/	-tris	4d\	dex-
.	.	.	.	.	.	4e\	.
2D/	ſe-	2A/	ad	.	.	4f\	.
.	.	.	.	.	.	4g\	.
=147-	=147-	=147-	=147-	=147-	=147-	=147-	=147-
2D/	-det	4D/	dex-	2r	.	2a\	.
.	.	4E/	.	.	.	.	.
2D/	ad	4F/	.	2A/	ſe-	2d\	-te-
.	.	4G/	.	.	.	.	.
1AA/	dex-	4A/	.	2A/	-det	4e\	-ram
.	.	4B\	.	.	.	4d\	.
!	!	!	!	!LO:LB:g=original	!	!	!
.	.	4cny\	.	2A/	ad	4e\	.
.	.	4A/	.	.	.	4f\	.
=148-	=148-	=148-	=148-	=148-	=148-	=148-	=148-
2BB/	-te-	2d\	.	4D/	dex-	2g\	.
.	.	.	.	4E/	.	.	.
1D\	-ra(m)	2A/	.	4F/	.	4f\	Pa-
.	.	.	.	4G/	.	4e\	.
.	.	4A/	.	4A/	.	4f\	.
.	.	8G/L	-te-	4B\	.	4g\	.
!	!	!LO:SIC:v:t=custos E	!	!	!	!	!
.	.	8F/J	.	.	.	.	.
!	!	!LO:LB:g=original	!	!	!	!	!
2C/	.	2E/	.	4c\	.	1a\	.
.	.	.	.	4A/	.	.	.
=149-	=149-	=149-	=149-	=149-	=149-	=149-	=149-
1BB/	Pa-	2.D/	ram	4B\	.	.	.
.	.	.	.	4c\	.	.	.
.	.	.	.	1d\	.	2g\	.
.	.	8C/L	.	.	.	.	.
.	.	8D/J	.	.	.	.	.
1AA/	-tris	2E/	.	.	.	2a\	-tris
.	.	1A\	.	2c\	-te-	2e\	ſe-
=150-	=150-	=150-	=150-	=150-	=150-	=150-	=150-
1r	.	.	.	2B\	-ra(m)	2e\	-det
.	.	2G#X/	Pa-	2B\	Pa-	2e\	ad
2r	.	0A\	-tris	2A,</	-tris	4A/	dex-
.	.	.	.	.	.	4B/	.
2A\	ſe-	.	.	2A/	ſe-	4c/	.
.	.	.	.	.	.	4d/	.
=151-	=151-	=151-	=151-	=151-	=151-	=151-	=151-
2A\	-det	.	.	2c\	-det	2e\	.
2A\	ad	.	.	2e\	ad	2c/	-te-
4D/	dex-	1A\	ſe-	1f\	dex-	4d\	-ram
4E\	.	.	.	.	.	8c/L	.
.	.	.	.	.	.	8B/J	.
4F\	.	.	.	.	.	4A/	.
!	!	!	!	!	!	!LO:SIC:v:t=custos c	!
4G\	.	.	.	.	.	4B/	.
!	!	!	!	!	!	!LO:PB:g=original	!
=152-	=152-	=152-	=152-	=152-	=152-	=152-	=152-
2A\	.	2A/	-det	1e\	-te-	1c\	.
2AA/	te-	2A/	ad	.	.	.	.
2BB/	-ra(m)	1D/	dex-	2d\	-ra(m)	1B/	.
1D\	.	.	.	2.d\	Pa-	.	.
=153-	=153-	=153-	=153-	=153-	=153-	=153-	=153-
.	.	1E/	-te-	.	.	2A/	.
.	.	.	.	8c\L	.	.	.
.	.	.	.	8B\J	.	.	.
2.C/	Pa-	.	.	4A/	.	2.e\	Pa-
.	.	.	.	8G/L	.	.	.
.	.	.	.	8F/J	.	.	.
.	.	1.Gny/	-ram	4E/	.	.	.
8BB/L	.	.	.	4F/	.	8d\L	.
8AA/J	.	.	.	.	.	8c\J	.
2GG/	.	.	.	4G/	.	4d\	.
.	.	.	.	4D/	.	4B/	.
=154-	=154-	=154-	=154-	=154-	=154-	=154-	=154-
0AA/	.	.	.	0A\	.	2c#X/	.
.	.	2F/	.	.	.	1d\	.
.	.	1E/	Pa-	.	.	.	.
.	.	.	.	.	.	2c#X/	.
=155-	=155-	=155-	=155-	=155-	=155-	=155-	=155-
0D\	-tris	0F#X/	-tris	0A\	-tris.	0d\	tris
!	!	!LO:LB:g=original	!	!LO:LB:g=original	!	!LO:LB:g=original	!
!LO:PB:g=original	!	!	!	!	!	!	!
=156||-	=156||-	=156||-	=156||-	=156||-	=156||-	=156||-	=156||-
*M2/1	*	*M2/1	*	*M2/1	*	*M2/1	*
*met(C|)	*	*met(C|)	*	*met(C|)	*	*met(C|)	*
1r	.	1A\	ET	2r	.	1r	.
.	.	.	.	1A\	ET	.	.
1D\	ET	2.A/	i-	.	.	1f#X\	ET
.	.	.	.	2.A/	i-	.	.
.	.	4A/	-te-	.	.	.	.
=157-	=157-	=157-	=157-	=157-	=157-	=157-	=157-
2.D/	i-	2A/	-rum	.	.	1.f#\	i-
.	.	.	.	4A/	-te-	.	.
.	.	2A/	Ven-	2A/	-ru(m)	.	.
4D/	-te-	.	.	.	.	.	.
2D/	-ru(m)	2d\	-tu-	2A/	Ven-	.	.
2D/	Ven-	2A/	-rus	2.d\	-tu-	2f\#	-te-
=158-	=158-	=158-	=158-	=158-	=158-	=158-	=158-
1.G\	-tu-	0B\	e(st).	.	.	2.g\	-ru(m)
.	.	.	.	4c\	.	.	.
.	.	.	.	4B\	.	.	.
.	.	.	.	4A/	.	4d\	Ven-
.	.	.	.	1.B\	.	2.d\	-tu-
2G\	-rus	.	.	.	.	.	.
.	.	.	.	.	.	4d\	rus
=159-	=159-	=159-	=159-	=159-	=159-	=159-	=159-
2.G\	eſt	1r	.	.	.	4d\	e(st)
.	.	.	.	.	.	4d\	cu(m)
.	.	.	.	2B\	-rus	1g\	glo-
4F\	.	.	.	.	.	.	.
4E\	.	1c\	Et	2c\	e(st)	.	.
4D/	.	.	.	.	.	.	.
1C/	.	.	.	2.e\	cu(m)	2g\	-ri-
=160-	=160-	=160-	=160-	=160-	=160-	=160-	=160-
.	.	2.c\	i-	.	.	2g\	-a
.	.	.	.	4d\	.	.	.
2C/	cum	.	.	2c\	.	2e\	cu(m)
.	.	4c\	-te-	.	.	.	.
2.G\	glo-	2B\	-ru(m)	2d\	glo-	2g\	glo-
.	.	2B\	Ven-	2B\	-ri-	2d\	-ri-
4G\	-ri-	.	.	.	.	.	.
=161-	=161-	=161-	=161-	=161-	=161-	=161-	=161-
2D/	-a	2d\	-tu-	2A/	-a	4fny\	-a
.	.	.	.	.	.	4d\	cu(m)
2D/	cu(m)	2d\	-rus	1A\	cu(m)	4A/	glo-
.	.	.	.	.	.	4B/	.
2.A\	glo-	2e\	e(st)	.	.	4cny/	.
.	.	.	.	.	.	4d\	.
.	.	2A/	Cu(m)	2.e\	glo-	4e\	.
4A\	-ri-	.	.	.	.	4f\	.
=162-	=162-	=162-	=162-	=162-	=162-	=162-	=162-
2E\	-a	2B\	glo-	.	.	2.g\	.
.	.	.	.	4e\	-ri-	.	.
1C/	Ju-	2c\	-ri-	2e\	-a	.	.
.	.	.	.	.	.	4g\	ri-
.	.	2G/	-a	2.c\	iu-	2e\	-a
2C/	-di-	2.G/	iu-	.	.	2.e\	iu-
.	.	.	.	4c\	-di-	.	.
=163-	=163-	=163-	=163-	=163-	=163-	=163-	=163-
2C/	-ca-	.	.	2c\	-ca-	.	.
!	!	!	!	!	!	!LO:SIC:v:t=custos e	!
.	.	4G/	-di-	.	.	4e\	-di-
!	!	!	!	!LO:SIC:v:t=custos c	!	!LO:LB:g=original	!
2E\	-re	2.c\	-ca-	2c\	-re	2e\	-ca-
!	!	!	!	!LO:LB:g=original	!	!	!
2F\	Vi-	.	.	2c\	Vi-	2A/	-re
.	.	4A/	-re	.	.	.	.
1D\	-vos	1A\	Vi-	2d\	-vos	1d\	Vi-
=164-	=164-	=164-	=164-	=164-	=164-	=164-	=164-
.	.	.	.	2d\	et	.	.
!LO:SIC:v:t=custos F	!	!	!	!	!	!	!
2D/	et	1d\	-vos	1d\	mor-	2f#X\	-vos
!LO:LB:g=original	!	!	!	!	!	!	!
2F#X\	mor-	.	.	.	.	2r	.
!	!	!LO:SIC:v:t=custos c	!	!	!	!	!
2G\	-tu-	2d\	et	2B\	-tu-	2g\	et
!	!	!LO:LB:g=original	!	!	!	!	!
=165-	=165-	=165-	=165-	=165-	=165-	=165-	=165-
2C/	-os	2c\	mor-	1e\	-os	2g\	mor-
2C/	et	2G/	-tu-	.	.	2c/	-tu-
2.FF/	mor-	2A/	-os.	1r	.	1c\	-os
.	.	2G/	Cu-	.	.	.	.
4GG/	-tu-	.	.	.	.	.	.
=166-	=166-	=166-	=166-	=166-	=166-	=166-	=166-
2AA/	-os	2G/	-ius	1.E/	Cu-	2r	.
1C/	Cu-	2.c\	re-	.	.	2G/	Cu-
.	.	.	.	.	.	2G/	-ius
.	.	4d\	.	.	.	.	.
2C/	-ius	4e\	.	2E/	-ius	2c/	re-
.	.	4c\	.	.	.	.	.
=167-	=167-	=167-	=167-	=167-	=167-	=167-	=167-
1G\	reg-	2d\	.	1G/	re-	4B/	.
.	.	.	.	.	.	4c/	.
.	.	2B\	-gni	.	.	4d\	.
.	.	.	.	.	.	4B/	.
2E\	-ni	2G/	non	2G/	-gni	2e\	-gni
2C/	non	2.c\	e-	2E/	non	2g\	non
=168-	=168-	=168-	=168-	=168-	=168-	=168-	=168-
2Fny\	e-	.	.	2F/	e-	2a\	e-
.	.	4A/	-rit	.	.	.	.
2D/	-rit	1d\	fi-	2A/	-rit	2fny\	-rit
1A\	fi-	.	.	1A\	fi-	1e\	fi-
.	.	2c#X\	.	.	.	.	.
=169-	=169-	=169-	=169-	=169-	=169-	=169-	=169-
1D\	-nis	1d\	-nis	1A\	-nis	2d\	-nis.
.	.	.	.	.	.	1A/	Et
2r	.	2d\	Et	1r	.	.	.
2AA/	Et	1A\	in	.	.	2e\	in
=170-	=170-	=170-	=170-	=170-	=170-	=170-	=170-
2D/	in	.	.	1D/	Et	1.f\	Spi-
4D/	Spi-	1d\	Spi-	.	.	.	.
4E\	.	.	.	.	.	.	.
4F\	.	.	.	0A\	in	.	.
4G\	.	.	.	.	.	.	.
2.A\	.	2c#X\	-ri-	.	.	4e\	.
.	.	.	.	.	.	4d\	.
=171-	=171-	=171-	=171-	=171-	=171-	=171-	=171-
.	.	2c#y\	-tu(m)	.	.	2e\	.
4A\	-ri-	.	.	.	.	.	.
2D/	-tum	2.d\	ſan-	.	.	2f\	ri-
2.G\	ſan-	.	.	1B\	ſpi-	2g\	-tu(m)
.	.	4cny\	.	.	.	.	.
!	!	!	!	!	!	!LO:LB:g=original	!
.	.	4B\	.	.	.	2.g\	ſan-
4F\	.	4A/	.	.	.	.	.
=172-	=172-	=172-	=172-	=172-	=172-	=172-	=172-
4E\	.	1B\	.	0G/	-ri-	.	.
4D/	.	.	.	.	.	4f\	.
1E\	.	.	.	.	.	4e\	.
.	.	.	.	.	.	4d\	.
.	.	2G/	-ctu(m)	.	.	1e\	.
2C/	ctu(m)	2.c\	.	.	.	.	.
=173-	=173-	=173-	=173-	=173-	=173-	=173-	=173-
2.F\	Do-	.	.	1A\	-tu(m)	2c/	-ctu(m)
.	.	4B\	.	.	.	.	.
.	.	4A/	.	.	.	2.f\	Do-
!LO:SIC:v:t=custos D	!	!	!	!	!	!	!
4E\	.	4G/	.	.	.	.	.
!LO:LB:g=original	!	!	!	!	!	!	!
4D/	.	2A/	.	1.A\	ſan-	.	.
4C/	.	.	.	.	.	4e\	.
!	!	!LO:TX:t=P:problem:brakujący tekst - "Do"	!	!	!	!	!
!	!	!LO:SIC:v:t=custos F	!	!	!	!	!
1D\	.	2F#X/	.	.	.	4d\	.
.	.	.	.	.	.	4c/	.
!	!	!LO:LB:g=original	!	!	!	!	!
=174-	=174-	=174-	=174-	=174-	=174-	=174-	=174-
.	.	2F#X/	mi-	.	.	2d\	.
2GG/	-mi-	1G/	-nu(m)	2B\	-ctu(m)	2d\	-mi-
2C/	-nu(m)	.	.	2.c\	Do-	1e\	-nu(m)
2C/	et	2.c\	et	.	.	.	.
.	.	.	.	4d\	-mi-	.	.
=175-	=175-	=175-	=175-	=175-	=175-	=175-	=175-
1G\	Vi-	.	.	2d\	-nu(m)	2.g\	et
.	.	8B\L	.	.	.	.	.
.	.	8A\J	.	.	.	.	.
.	.	2B\	.	2d\	et	.	.
.	.	.	.	.	.	4f\	.
!	!	!	!	!LO:SIC:v:t=custos B	!	!	!
2A\	-vi-	2c\	Vi-	2c\	Vi-	2e\	.
!	!	!	!	!LO:PB:g=original	!	!	!
2E\	-fi-	2e\	-vi-	2.B\	-vi-	2g\	Vi-
=176-	=176-	=176-	=176-	=176-	=176-	=176-	=176-
*lig	*	*	*	*	*	*	*
1F\	-can-	4d\	.	.	.	2f\	-ui-
.	.	4c\	.	4A/	.	.	.
.	.	4B\	.	1A\	-fi-	2d\	-fi-
.	.	4A/	.	.	.	.	.
1E\	.	1B\	-fi-	.	.	2.e\	-can-
.	.	.	.	2G/	-can-	.	.
.	.	.	.	.	.	4d\	.
*Xlig	*	*	*	*	*	*	*
=177-	=177-	=177-	=177-	=177-	=177-	=177-	=177-
*lig	*	*	*	*	*	*	*
1AA/	-tem	1A\	-can-	1A\	-te(m)	2c#X/	.
.	.	.	.	.	.	2B/	-tem.
1E\	.	1B\	-tem	0E/	Qui	1r	.
*Xlig	*	*	*	*	*	*	*
=178-	=178-	=178-	=178-	=178-	=178-	=178-	=178-
0AA/	q(ui)	4A/	qui	.	.	0e\	&
.	.	4B\	.	.	.	.	.
!	!	!LO:TX:a:t=P:problem:# above	!	!	!	!	!
.	.	4c#X\	.	.	.	.	.
.	.	4d\	.	.	.	.	.
.	.	2e\	.	0A\	ex	.	.
.	.	2A/	ex	.	.	.	.
=179-	=179-	=179-	=179-	=179-	=179-	=179-	=179-
*	*	*lig	*	*	*	*	*
*	*	*col	*	*	*	*	*
!	!	!	!	!	!	!LO:TX:b:t=P:problem:# below	!
0D\	ex	1A\	Pa-	.	.	0f#X\	ex
!	!	!	!	!LO:TX:b:t=P:problem:# below	!	!	!
.	.	2.d\	.	0B#X\	Pa-	.	.
*	*	*Xlig	*	*	*	*	*
*	*	*Xcol	*	*	*	*	*
.	.	4cny\	.	.	.	.	.
=180-	=180-	=180-	=180-	=180-	=180-	=180-	=180-
0E\	Pat-	4B\	.	.	.	2.g\	Pa-
.	.	4A/	.	.	.	.	.
.	.	1B\	.	.	.	.	.
.	.	.	.	.	.	4fny\	.
.	.	.	.	1.G/	-tre	4e\	.
.	.	.	.	.	.	4d\	.
.	.	2G/	-tre	.	.	1e\	.
=181-	=181-	=181-	=181-	=181-	=181-	=181-	=181-
1C/	-re	2.c\	fi-	.	.	.	.
!	!	!	!	!	!	!LO:SIC:v:t=custos f	!
.	.	.	.	1A\	fi-	2cny/	-tre
.	.	4B\	.	.	.	.	.
!	!	!	!	!	!	!LO:LB:g=original	!
1D\	fi-	4A/	.	.	.	2.f\	fi-
.	.	4G/	.	.	.	.	.
.	.	2A/	.	1A\	-li-	.	.
.	.	.	.	.	.	4e\	.
=182-	=182-	=182-	=182-	=182-	=182-	=182-	=182-
2D/	-li-	2.Fny/	li-	.	.	2d\	.
2D/	-o-	.	.	1Bny\	-o-	2f\	-li-
.	.	4D/	-o-	.	.	.	.
2.E\	-q(ue)	1.G/	-q(ue)	.	.	1e\	-o-
.	.	.	.	2c\	-q(ue)	.	.
4F\	.	.	.	.	.	.	.
=183-	=183-	=183-	=183-	=183-	=183-	=183-	=183-
2G\	p(ro)-	.	.	2B\	(pro)-	2d\	-q(ue)
!	!	!LO:SIC:v:t=custos B	!	!	!	!	!
2F\	.	2A/	pro-	1d\	-ce-	2d\	pro-
!	!	!LO:PB:g=original	!	!	!	!	!
1E\	-ce-	2B\	-ce-	.	.	1.g\	-ce-
.	.	4A/	.	2c#X\	.	.	.
.	.	4G/	.	.	.	.	.
=184-	=184-	=184-	=184-	=184-	=184-	=184-	=184-
2D/	-dit	1A\	.	1d\	-dit	.	.
1D\	q(ui)	.	.	.	.	4f\	.
.	.	.	.	.	.	4e\	.
.	.	2A/	-dit	1.A\	Qui	1d\	-dit
2D\	cu(m)	2d\	q(ui)	.	.	.	.
=185-	=185-	=185-	=185-	=185-	=185-	=185-	=185-
1A\	Pa-	2d\	cu(m)	.	.	2.e\	q(ui)
.	.	1c\	Pa-	2A/	cu(m)	.	.
.	.	.	.	.	.	4f\	.
2.G\	-tre	.	.	1D/	Pa-	2g\	.
.	.	4B\	.	.	.	2g\	cu(m)
4F\	.	4A/	.	.	.	.	.
=186-	=186-	=186-	=186-	=186-	=186-	=186-	=186-
4E\	.	2B\	-tre	2.E/	-tre	4g\	Pa-
!LO:SIC:v:t=custos C	!	!	!	!	!	!	!
4D/	.	.	.	.	.	4f\	.
!LO:LB:g=original	!	!	!	!	!	!	!
1C/	.	1c\	et	.	.	4e\	.
.	.	.	.	4F/	.	4d\	.
.	.	.	.	1.G/	.	2e\	.
2GG/	et	2B\	.	.	.	2.d\	-tre
=187-	=187-	=187-	=187-	=187-	=187-	=187-	=187-
2.D/	fi-	1.A\	fi-	.	.	.	.
.	.	.	.	.	.	4A/	et
.	.	.	.	2F/	et	1d\	fi-
4D/	-li-	.	.	.	.	.	.
1AA/	-o	.	.	2.E/	fi-	.	.
.	.	2A/	-li-	.	.	2c#X/	-li-
.	.	.	.	4E/	-li-	.	.
=188-	=188-	=188-	=188-	=188-	=188-	=188-	=188-
!	!	!	!	!LO:SIC:v:t=custos F	!	!	!
2D/	ſi-	0D/	-o	2F/	-o	1d\	-o
!	!	!	!	!LO:LB:g=original	!	!	!
2D/	-mul	.	.	2.F/	ſi-	.	.
1r	.	.	.	.	.	2.A/	ſi-
.	.	.	.	4F/	-mul	.	.
.	.	.	.	2F/	ado-	.	.
.	.	.	.	.	.	4A/	-mul
=189-	=189-	=189-	=189-	=189-	=189-	=189-	=189-
2.FF/	ſi-	2r	.	2F/	-ra-	2A/	a-
.	.	1F/	ſi-	2.cny\	.	2A/	-do-
4FF/	-mul	.	.	.	.	.	.
2FF/	a-	.	.	.	.	4A/	-ra-
.	.	.	.	4B\	.	4B/	.
2FF/	-do-	2F/	-mul	2A/	.	4cny/	.
.	.	.	.	.	.	4d\	.
=190-	=190-	=190-	=190-	=190-	=190-	=190-	=190-
0C/	-ra-	0E/	a-	2G/	-tur	4e\	.
.	.	.	.	.	.	4d\	.
.	.	.	.	2.c\	a-	4e\	.
!	!	!	!	!	!	!LO:SIC:v:t=custos g	!
.	.	.	.	.	.	4f\	.
!	!	!	!	!	!	!LO:PB:g=original	!
.	.	.	.	.	.	2g\	.
.	.	.	.	8B\L	.	.	.
.	.	.	.	8A\J	.	.	.
.	.	.	.	4G/	.	2c/	.
.	.	.	.	4A/	.	.	.
=191-	=191-	=191-	=191-	=191-	=191-	=191-	=191-
0GG/	-tur	0G/	-do-	4B\	-do-	0d\	-tur
.	.	.	.	4A/	.	.	.
.	.	.	.	4B\	.	.	.
.	.	.	.	4c\	.	.	.
.	.	.	.	2d\	-ra-	.	.
.	.	.	.	2B\	-t(ur)	.	.
=192-	=192-	=192-	=192-	=192-	=192-	=192-	=192-
1r	.	1A\	-ra-	1A\	et	2r	.
.	.	.	.	.	.	2A/	et
2r	.	2.D/	-tur	2A/	con-	2.d\	con-
2GG/	et	.	.	2d\	-glo-	.	.
.	.	4G/	et	.	.	4d\	-glo-
=193-	=193-	=193-	=193-	=193-	=193-	=193-	=193-
2.D/	con-	2.A/	con-	2.d\	-ri-	2d\	-ri-
.	.	.	.	.	.	2d\	-fi-
4D/	-glo-	4A/	-glo-	4d\	-fi-	.	.
2D/	-ri-	2A/	-ri-	2d\	-ca-	1.f\	-ca-
2D/	-fi-	1A/	-fi-	2d\	-t(ur)	.	.
=194-	=194-	=194-	=194-	=194-	=194-	=194-	=194-
0F\	-ca-	.	.	2.c\	con-	.	.
.	.	2.F/	-ca-	.	.	2.f\	-tur
.	.	.	.	4B\	-glo-	.	.
.	.	.	.	4A/	-ri-	.	.
.	.	4G/	.	4G/	-fi-	8e\L	.
.	.	.	.	.	.	8d\J	.
.	.	4A/	.	2A\	-ca-	1c\	.
.	.	4F/	.	.	.	.	.
=195-	=195-	=195-	=195-	=195-	=195-	=195-	=195-
!	!	!LO:SIC:v:t=custos C	!	!	!	!	!
2C/	-t(ur)	2G/	.	1G/	-t(ur)	.	.
!	!	!LO:LB:g=original	!	!	!	!	!
4C/	q(ui)	2C/	-t(ur)	.	.	2r	.
4D/	.	.	.	.	.	.	.
4E\	.	2c\	q(ui)	2E/	.	1g\	q(ui)
4F\	.	.	.	.	.	.	.
1G\	.	2B\	lo-	1D/	qui	.	.
=196-	=196-	=196-	=196-	=196-	=196-	=196-	=196-
.	.	2.d\	-cu-	.	.	1a\	lo-
!	!	!	!	!LO:SIC:v:t=custos B	!	!	!
2F#X\	lo-	.	.	2A/	lo-	.	.
.	.	4c\	.	.	.	.	.
!	!	!	!	!LO:LB:g=original	!	!	!
2.G\	-cu-	4B\	.	2B#X\	-cu-	1d\	-cu-
.	.	4A/	.	.	.	.	.
.	.	1B\	.	1G/	-tus	.	.
4Fny\	.	.	.	.	.	.	.
=197-	=197-	=197-	=197-	=197-	=197-	=197-	=197-
2E\	.	.	.	.	.	1e\	-t(us)
2A\	-(tus)	2c\	tus	1A\	eſt	.	.
2D\	e(st)	2d\	eſt	.	.	1f\	eſt
!LO:SIC:v:t=custos E	!	!	!	!	!	!	!
1F\	per	4c\	.	2.A/	per	.	.
.	.	4B\	.	.	.	.	.
=198-	=198-	=198-	=198-	=198-	=198-	=198-	=198-
.	.	2c\	.	.	.	1r	.
.	.	.	.	4Bny\	.	.	.
!LO:LB:g=original	!	!	!	!	!	!	!
2E\	pro-	2G/	p(er)	1c\	Pro-	.	.
*lig	*	*	*	*	*	*	*
1D\	-phe-	2A/	Pro-	.	.	1.f\	p(er)
.	.	4G/	.	2B\	-phe-	.	.
.	.	4F/	.	.	.	.	.
=199-	=199-	=199-	=199-	=199-	=199-	=199-	=199-
1C/	.	2G/	.	2c\	-tas	.	.
.	.	1c\	.	2.G/	p(er)	2e\	Pro-
*Xlig	*	*	*	*	*	*	*
1G\	.	.	.	.	.	1d\	-phe-
.	.	.	.	4G/	Pro-	.	.
.	.	2B\	-phe-	2D/	-phe-	.	.
=200-	=200-	=200-	=200-	=200-	=200-	=200-	=200-
2C/	tas	1c\	-tas	1E/	-tas	1c\	-tas
2C/	et	.	.	.	.	.	.
2C/	V-	1c\	Et	2r	.	1e\	et
2AA/	-na(m)	.	.	1A\	et	.	.
=201-	=201-	=201-	=201-	=201-	=201-	=201-	=201-
1E\	San-	2.B\	V-	.	.	1e\	V-
.	.	.	.	1G/	V-	.	.
.	.	4c\	.	.	.	.	.
1.D\	-cta(m)	1.d\	.	.	.	1.A/	-na(m)
!	!	!	!	!LO:TX:b:t=P:problem:# below	!	!	!
.	.	.	.	4F#X/	.	.	.
.	.	.	.	4E/	.	.	.
=202-	=202-	=202-	=202-	=202-	=202-	=202-	=202-
!	!	!	!	!LO:TX:b:t=P:problem:# below	!	!	!
.	.	.	.	2F#X/	.	.	.
2BB/	Ca-	2d\	-na(m)	2G/	-na(m)	2d\	S(an-
*lig	*	*	*	*	*	*	*
*col	*	*	*	*	*	*	*
1C/	-tho-	1e\	ſan-	2G/	ſan-	2c/	-ctam)
.	.	.	.	2C/	.	2G/	Ca-
=203-	=203-	=203-	=203-	=203-	=203-	=203-	=203-
!	!	!	!	!	!	!LO:SIC:v:t=custos d	!
2.D\	.	2.A/	-cta(m)	4Fny/	-ctam	2d\	-tho-
.	.	.	.	4E/	.	.	.
!	!	!	!	!	!	!LO:LB:g=original	!
.	.	.	.	4F/	.	2d\	-li-
*Xlig	*	*	*	*	*	*	*
*Xcol	*	*	*	*	*	*	*
8C/L	.	4B\	.	4G/	.	.	.
8BB/J	.	.	.	.	.	.	.
2AA/	.	2c\	.	2A/	.	2e\	-ca(m)
2BB/	.	2B\	Ca-	2d\	Ca-	2g\	Ca-
=204-	=204-	=204-	=204-	=204-	=204-	=204-	=204-
2C/	.	2A/	-tho-	2c\	-tho-	2.a\	-tho-
!	!	!LO:SIC:v:t=custos G	!	!	!	!	!
2D/	-li-	2A/	-li-	2A/	-li-	.	.
.	.	.	.	.	.	4d\	-li-
!	!	!LO:LB:g=original	!	!	!	!	!
2GG/	-ca(m)	2G/	-ca(m)	1d\	-cam	1d\	-cam
2G\	Et	2d\	Et	.	.	.	.
=205-	=205-	=205-	=205-	=205-	=205-	=205-	=205-
2G\	A-	2e\	A-	2r	.	1r	.
!	!	!	!	!LO:SIC:v:t=custos B	!	!	!
2F#X\	-po-	2d\	-po-	2A/	et	.	.
!	!	!	!	!LO:LB:g=original	!	!	!
2.G\	-ſto-	2d\	-ſto-	2B\	A-	2r	.
.	.	2B\	-li-	2B\	-po-	2g\	et
4G\	-li-	.	.	.	.	.	.
=206-	=206-	=206-	=206-	=206-	=206-	=206-	=206-
1D\	-ca(m)	2A/	-ca(m)	2.d\	-ſto-	2g\	A-
.	.	2.d\	Ec-	.	.	2f#X\	-po-
.	.	.	.	4d\	-li-	.	.
*lig	*	*	*	*	*	*	*
1Fny\	Ec-	.	.	2B\	-ca(m)	2.g\	-ſto-
.	.	4c\	.	.	.	.	.
.	.	2B\	.	1B\	Ec-	.	.
.	.	.	.	.	.	4g\	-li-
=207-	=207-	=207-	=207-	=207-	=207-	=207-	=207-
*	*	*lig	*	*	*	*	*
1E\	.	1e\	.	.	.	2g\	-ca(m)
.	.	.	.	2.c\	-cle-	2.e\	Ec-
*Xlig	*	*	*	*	*	*	*
*lig	*	*	*	*	*	*	*
*col	*	*	*	*	*	*	*
1F\	-cle-	1A\	.	.	.	.	.
.	.	.	.	4B\	.	8d\L	.
.	.	.	.	.	.	8c\J	.
.	.	.	.	1A\	.	2d\	.
*	*	*Xlig	*	*	*	*	*
=208-	=208-	=208-	=208-	=208-	=208-	=208-	=208-
2.E\	.	2.B\	-cle-	.	.	2.e\	-cle-
.	.	.	.	2G#X/	-si-	.	.
*Xlig	*	*	*	*	*	*	*
*Xcol	*	*	*	*	*	*	*
4E\	-ſi-	4B\	-ſi-	.	.	4e\	-ſi-
1AA/	-am.	1A\	-am	1A\	-am.	1e\	-am
!LO:PB:g=original	!	!	!	!	!	!	!
=209-	=209-	=209-	=209-	=209-	=209-	=209-	=209-
*M3/1	*	*M3/1	*	*M3/1	*	*M3/1	*
*met(O|)	*	*met(O|)	*	*met(O|)	*	*met(O|)	*
1G\	Con-	1B\	Con-	0.D/	Con-	0.r	.
1F#X\	-fi-	1A\	-fi-	.	.	.	.
1G\	-te-	1B\	-te-	.	.	.	.
=210-	=210-	=210-	=210-	=210-	=210-	=210-	=210-
1D\	-or	2d\	-or	0A\	-fi-	1fny\	Con-
.	.	2A/	Con-	.	.	.	.
1r	.	1A\	-fi-	.	.	1e\	-fi-
1r	.	1A\	-te-	1A\	-te-	1f#X\	-te-
=211-	=211-	=211-	=211-	=211-	=211-	=211-	=211-
1G\	Con-	1G/	-or	0.B\	-or	2g\	-or
.	.	.	.	.	.	2g\	Con-
1E\	-fi-	1r	.	.	.	1g\	-fi-
1G\	-te-	1r	.	.	.	1g\	-te-
=212-	=212-	=212-	=212-	=212-	=212-	=212-	=212-
1C/	-or	1r	.	0.Gny/	V-	1e\	-or
*lig	*	*lig	*	*	*	*	*
1GG/	U-	1G/	Con-	.	.	1r	.
!	!	!	!	!	!	!LO:SIC:v:t=custos c	!
1C/	.	1c\	.	.	.	1e\	V-
*Xlig	*	*Xlig	*	*	*	*	*
!	!	!	!	!	!	!LO:LB:g=original	!
=213-	=213-	=213-	=213-	=213-	=213-	=213-	=213-
*	*	*col	*	*	*	*lig	*
0Fny\	-num	1A\	-fi-	0.A\	-num	1c\	-num
.	.	0c\	-te-	.	.	1fny\	.
*	*	*Xcol	*	*	*	*Xlig	*
1A\	Bap-	.	.	.	.	1e\	ba-
!	!	!LO:LB:g=original	!	!	!	!	!
=214-	=214-	=214-	=214-	=214-	=214-	=214-	=214-
0.G\	-tiſ-	0d\	-or	0.B\	Ba-	0.g\	-pti-
.	.	1G/	con-	.	.	.	.
=215-	=215-	=215-	=215-	=215-	=215-	=215-	=215-
0C/	-ma	0G/	-fi-	0.c\	-pti-	0e\	-ſma
1E\	Bap-	1G/	-te-	.	.	1e\	V-
=216-	=216-	=216-	=216-	=216-	=216-	=216-	=216-
!	!	!	!	!	!	!LO:TX:b:t=P:problem:# below	!
1D\	-tiſ-	0d\	-or	0.d\	.	0f#X\	-nu(m)
1D\	-m(a)	.	.	.	.	.	.
1GG/	V-	1d\	V-	.	.	1g\	.
=217-	=217-	=217-	=217-	=217-	=217-	=217-	=217-
1C/	-nu(m)	0e\	-nu(m)	0c\	.	1g\	ba-
*lig	*	*	*	*	*	*lig	*
1AA/	Ba-	.	.	.	.	1a\	.
1BB/	.	1d\	Bap-	1B\	.	1g\	.
*Xlig	*	*	*	*	*	*Xlig	*
=218-	=218-	=218-	=218-	=218-	=218-	=218-	=218-
*lig	*	*	*	*	*	*lig	*
1C/	-pti-	1c\	-ti-	0A\	.	1e\	-pti-
1D/	.	0B\	.	.	.	1fny\	.
*Xlig	*	*	*	*	*	*Xlig	*
1E\	.	.	.	1G#X/	.	1e\	.
!	!	!	!	!LO:LB:g=original	!	!	!
=219-	=219-	=219-	=219-	=219-	=219-	=219-	=219-
0.AA/	-ſma	0.A\	-ſma	00.A\	-ſma	0.e\,<	-ſma
=220-	=220-	=220-	=220-	=220-	=220-	=220-	=220-
0A\	in	0c#X\	in	.	.	0e\	in
!LO:SIC:v:t=custos D	!	!	!	!	!	!	!
1A\	re-	1c#\	re-	.	.	1e\	re-
!LO:LB:g=original	!	!	!	!	!	!	!
=221-	=221-	=221-	=221-	=221-	=221-	=221-	=221-
1.D\	-miſ-	1d\	-miſ-	0A\	in	0f#X\	-miſ-
.	.	1d\	-si-	.	.	.	.
2E\	-si-	.	.	.	.	.	.
1F#X\	-o-	2d\	-o-	1A\	re-	1a\	-si-
.	.	2cny\	.	.	.	.	.
=222-	=222-	=222-	=222-	=222-	=222-	=222-	=222-
1G\	-ne(m)	2B\	.	0D/	-miſ-	0g\	-o-
.	.	2A/	.	.	.	.	.
1G\	pec-	1B\	.	.	.	.	.
1Fny\	-ca-	1A\	nem	1D/	-si-	1a\	-nem
=223-	=223-	=223-	=223-	=223-	=223-	=223-	=223-
2E\	-to-	1B\	pec-	1E/	-o-	2g\	pec-
2D/	.	.	.	.	.	2fny\	.
2C/	.	1c\	-ca-	1Gny/	-ne(m)	2e\	.
2BB/	.	.	.	.	.	2d\	.
1C/	.	2c\	-to-	1G/	pec-	1e\	.
.	.	2B\	.	.	.	.	.
=224-	=224-	=224-	=224-	=224-	=224-	=224-	=224-
*col	*	*	*	*col	*	*	*
1D\	.	2A/	.	1F/	-ca-	0d\	-ca-
.	.	2G/	.	.	.	.	.
0AA/	.	0A\	.	0E/	-to-	.	.
.	.	.	.	.	.	1c#X\	-to-
*Xcol	*	*	*	*Xcol	*	*	*
=225-	=225-	=225-	=225-	=225-	=225-	=225-	=225-
1D\	ru(m)	1A\	-ru(m)	1D/	-ru(m)	1d\	-ru(m)
1D\	Et	1F/	et	1A\	Et	1d\	et
!	!	!LO:SIC:v:t=custos E	!	!	!	!	!
1D\	ex-	1F/	ex-	1A\	ex-	1d\	ex-
!	!	!LO:LB:g=original	!	!	!	!	!
=226-	=226-	=226-	=226-	=226-	=226-	=226-	=226-
0AA/	-pec-	0E/	-pe-	0c\	-pe-	1.cny\	-pec-
.	.	.	.	.	.	2c\	-to
!	!	!	!	!	!	!LO:SIC:v:t=custos e	!
1AA/	-to	1E/	-cto	1c\	-cto	1A/	re-
!	!	!	!	!	!	!LO:LB:g=original	!
=227-	=227-	=227-	=227-	=227-	=227-	=227-	=227-
*	*	*	*	*lig	*	*	*
0C/	re-	1.E/	re-	1c\	re-	1e\	-ſur-
.	.	.	.	1G/	.	1e\	-rec-
.	.	2G/	-ſur-	.	.	.	.
*	*	*	*	*Xlig	*	*	*
1C/	-ſur-	1G/	-re-	1c\	-ſur-	1c\	-ti-
=228-	=228-	=228-	=228-	=228-	=228-	=228-	=228-
0GG/	-re-	0.G/	-cti-	0B\	-re-	0d\	-o-
1GG/	-cti-	.	.	1B\	-cti-	1d\	-nem
=229-	=229-	=229-	=229-	=229-	=229-	=229-	=229-
*col	*	*	*	*	*	*	*
1D\	-o-	0A\	-o-	0A\	-o-	0.r	.
0AA/	-nem	.	.	.	.	.	.
.	.	1A\	-ne(m)	1A\	-nem	.	.
*Xcol	*	*	*	*	*	*	*
=230-	=230-	=230-	=230-	=230-	=230-	=230-	=230-
*	*	*	*	*	*	*col	*
1.BB-X/	mor-	1.D/	mor-	1.F/	mor-	0B-X/	mor-
4AA/	.	2E/	.	2G/	.	.	.
4GG/	.	.	.	.	.	.	.
1FF/	.	1F/	.	1A\	.	(1A\	-tu-
=231-	=231-	=231-	=231-	=231-	=231-	=231-	=231-
*col	*	*col	*	*	*	*	*
1C/	-tu-	1E/	-tu-	1G/	tu-	1c\)	.
!	!	!	!	!LO:SIC:v:t=custos G	!	!	!
0GG/	-o-	0D/	-o-	0G/	-o-	0d\	-o-
*Xcol	*	*Xcol	*	*	*	*Xcol	*
!	!	!	!	!LO:PB:g=original	!	!	!
=232-	=232-	=232-	=232-	=232-	=232-	=232-	=232-
*M2/1	*	*M2/1	*	*M2/1	*	*M2/1	*
*met(C|)	*	*met(C|)	*	*met(C|)	*	*met(C|)	*
!LO:SIC:v:t=custos E	!	!	!	!	!	!	!
1C/	-ru(m)	2C/	-ru(m)	1G/	-ru(m)	2e\	-ru(m)
.	.	2c\	Et	.	.	2e\	Et
!LO:LB:g=original	!	!	!	!	!	!	!
2r	.	1c\	Vi-	2E/	Et	2g\	Vi-
2E\	Et	.	.	2.G/	Vi-	2e\	-ta(m)
=233-	=233-	=233-	=233-	=233-	=233-	=233-	=233-
1G\	Vi-	2B\	-ta(m)	.	.	4d\	Ven-
.	.	.	.	4G/	-ta(m)	4c/	.
.	.	1d\	Ven-	2G/	Ven-	4Bny/	.
.	.	.	.	.	.	4A/	.
2G\	-ta(m)	.	.	2G/	-tu-	2B/	.
2E\	ven-	2.c\	-tu-	2G/	-ri	1e\	-tu-
=234-	=234-	=234-	=234-	=234-	=234-	=234-	=234-
*	*	*	*	*lig	*	*	*
2F\	-tu-	.	.	1A\	ſae-	.	.
.	.	4A/	-ri	.	.	.	.
2F\	-ri	1d\	ſae-	.	.	2d\	-ri
2.E\	ſae-	.	.	1.G/	.	2.e\	ſae-
.	.	2c#X\	-cu-	.	.	.	.
4E\	-cu-	.	.	.	.	4e\	-cu-
*	*	*	*	*Xlig	*	*	*
=235-	=235-	=235-	=235-	=235-	=235-	=235-	=235-
1D\	-li	0d\	-li	.	.	1A/	-li
.	.	.	.	2F/	-cu-	.	.
*lig	*	*	*	*	*	*	*
1GG/	A-	.	.	2D/	-li.	1r	.
.	.	.	.	1G/	A-	.	.
=236-	=236-	=236-	=236-	=236-	=236-	=236-	=236-
1C/	.	1.cny\	A-	.	.	2r	.
.	.	.	.	1c\	-men	1c\	A-
*Xlig	*	*	*	*	*	*	*
1FF/	-men	.	.	.	.	.	.
.	.	2A\	.	2c\	A-	1f\	-men
=237-	=237-	=237-	=237-	=237-	=237-	=237-	=237-
!	!	!LO:SIC:v:t=custos A	!	!	!	!	!
!	!	!LO:SIC:v:l:custos men	!	!	!	!	!
2.F\	A-	0.A\	.	2d\	-me(n)	.	.
.	.	.	.	1d\	A-	2.a\	A-
4G\	.	.	.	.	.	.	.
*lig	*	*	*	*	*	*	*
1A\	.	.	.	.	.	.	.
.	.	.	.	.	.	8g\L	.
.	.	.	.	.	.	8f\J	.
!	!	!	!	!	!	!LO:SIC:v:t=custos a	!
.	.	.	.	4c#y\	.	1e\	.
.	.	.	.	4B\	.	.	.
=238-	=238-	=238-	=238-	=238-	=238-	=238-	=238-
1AA/	.	.	.	1c#X\	.	.	.
!	!	!	!	!	!	!LO:LB:g=original	!
.	.	.	.	.	.	2a\	.
*Xlig	*	*	*	*	*	*	*
!	!	!LO:PB:g=original	!	!	!	!	!
1D\	-men	2A/	-men	2d\	-me(n)	2f#X\	-men
.	.	2.A/	Et	2d\	Et	4r	.
.	.	.	.	.	.	4a\	Et
=239-	=239-	=239-	=239-	=239-	=239-	=239-	=239-
1AA/	Et	.	.	0e\	Vi-	1a\	Vi-
.	.	2c\	Vi-	.	.	.	.
.	.	2c\	-ta(m)	.	.	.	.
1C/	Vi-	.	.	.	.	0g\	-ta(m)
.	.	4G/	Ven-	.	.	.	.
.	.	4G/	-tu-	.	.	.	.
.	.	4A/	.	.	.	.	.
=240-	=240-	=240-	=240-	=240-	=240-	=240-	=240-
2GG/	-ta(m)	4B\	.	2d\	-ta(m)	.	.
.	.	4A/	.	.	.	.	.
2GG/	ven-	4B\	.	2B\	Ven-	.	.
.	.	4c\	.	.	.	.	.
1D\	-tu-	2.d\	.	2A/	-tu-	1fny\	Ven-
.	.	.	.	2d\	-ri	.	.
.	.	4A/	ri	.	.	.	.
=241-	=241-	=241-	=241-	=241-	=241-	=241-	=241-
1AA/	-ri	4A/	ſae-	1.cny\	ſae-	2e\	-tu-
.	.	4B\	.	.	.	.	.
.	.	4c\	.	.	.	2a\	-ri
.	.	4d\	.	.	.	.	.
2.C/	ſae-	2.e\	.	.	.	1.g\	ſae-
.	.	.	.	2e\	-cu-	.	.
4C/	-cu-	4c\	-cu-	.	.	.	.
=242-	=242-	=242-	=242-	=242-	=242-	=242-	=242-
1GG/	-li	1d\	-li	2d\	-li	.	.
.	.	.	.	1G/	A-	2d\	-cu-
!LO:SIC:v:t=custos FF	!	!	!	!	!	!	!
1C/	A-	1.c\	A-	.	.	2e\	-li
.	.	.	.	1c\	-men	1c\	A-
!LO:LB:g=original	!	!	!	!	!	!	!
=243-	=243-	=243-	=243-	=243-	=243-	=243-	=243-
1FF/	-men	.	.	.	.	.	.
.	.	2A/	-men	2c\	A-	1f\	-men
2.F\	A-	0.A\	a-	2d\	-men	.	.
.	.	.	.	1d\	A-	2.a\	A-
4G\	.	.	.	.	.	.	.
=244-	=244-	=244-	=244-	=244-	=244-	=244-	=244-
*lig	*	*	*	*	*	*	*
1A\	.	.	.	.	.	.	.
.	.	.	.	.	.	8g\L	.
.	.	.	.	.	.	8f\J	.
.	.	.	.	4c#X\	.	1e\	.
.	.	.	.	4B\	.	.	.
1AA/	.	.	.	1c#X\	.	.	.
.	.	.	.	.	.	2a\	.
*Xlig	*	*	*	*	*	*	*
=245-	=245-	=245-	=245-	=245-	=245-	=245-	=245-
0D\	-men.	0A\	-men	0d\	-men	0f#X\	-men.
==	==	==	==	==	==	==	==
*-	*-	*-	*-	*-	*-	*-	*-
!!!system-decoration: [(*)]
!!!AIN: 1 alto 1 bass 1 soprn 1 tenor
!!!ENC: Filip Voros
!!!END: 2022-01-06
!!!RDF**kern: < = below
!!!RDF**kern: l = terminal long
!!!EED: Andrzej Borzym
!!!EST: 2022-01-07
